!!!!SEGMENT: pl-cz--ii-187--001-001_orlowski-michal--sinfonia-in-f-allegro-moderato.krn
!!!cenid: 17xx:1019
!!!COM: Orłowski, Michał
!!!COM-rismid: pe30020336
!!!CDT: ~1700-~1799
!!!CNT:
!!!OPR: Sinfonia in F
!!!OTL: Allegro moderato
!!!OMV: 001
!!!PDT:
!!!AGN: Secular
!!!SMS-siglum: PL-CZ
!!!SMS-shelfmark: II-187
!!!SMS-shelfwork: 001-001 M
!!!SMS-variant:
!!!SMS-altvar:
!!!NIFC-rismid: 300000946
!!!URL-scan: http://repozytorium.nifc.pl/skany/pl-cz-nut--ii-187
!!!ONB-nifc: UWAGA: części Sinfonii: Allegro moderato, Andante, Rondo
!!!key:
**kern	**dynam	**kern	**dynam	**kern	**dynam	**kern	**dynam	**kern	**dynam	**kern	**dynam	**kern	**dynam	**kern	**kern
*part9	*part9	*part8	*part8	*part7	*part7	*part6	*part6	*part5	*part5	*part4	*part4	*part3	*part3	*part2	*part1
*staff9	*	*staff8	*	*staff7	*	*staff6	*	*staff5	*	*staff4	*	*staff3	*	*staff2	*staff1
*I"Baſso.	*	*I"Viola Obl:	*	*I"Violino Secondo	*	*I"Violino Primo	*	*I"Corno in F	*	*I"Corno in F	*	*I"Fagotto Concertatto.	*	*I"Oboe Secondo.	*I"Oboe Primo Concertatto
*I'cb	*	*I'vla	*	*I'vl II	*	*I'vl I	*	*I'C. in F	*	*I'C. in F	*	*I'fag	*	*I'ob II	*I'ob I
*Icbass	*	*Iviola	*	*Ivioln	*	*Ivioln	*	*Icor	*	*Ifagot	*	*Ioboe	*	*Ioboe	*
*ICstr	*	*ICstr	*	*ICstr	*	*ICstr	*	*ICbras	*	*ICww	*	*ICww	*	*ICww	*
*	*	*	*	*	*	*	*	*	*	*	*	*	*	*	*
*clefF4	*	*clefC3	*	*clefG2	*	*clefG2	*	*clefG2	*	*clefG2	*	*clefF4	*	*clefG2	*clefG2
*	*	*	*	*	*	*	*	*ITrd4c7	*	*ITrd4c7	*	*	*	*	*
*k[b-]	*	*k[b-]	*	*k[b-]	*	*k[b-]	*	*k[b-]	*	*k[b-]	*	*k[b-]	*	*k[b-]	*k[b-]
*F:	*	*F:	*	*F:	*	*F:	*	*F:	*	*F:	*	*F:	*	*F:	*F:
*M4/4	*	*M4/4	*	*M4/4	*	*M4/4	*	*M4/4	*	*M4/4	*	*M4/4	*	*M4/4	*M4/4
*met(c)	*	*met(c)	*	*met(c)	*	*met(c)	*	*met(c)	*	*met(c)	*	*met(c)	*	*met(c)	*met(c)
=1	=1	=1	=1	=1	=1	=1	=1	=1	=1	=1	=1	=1	=1	=1	=1
!LO:TX:a:t=|	!	!LO:TX:a:t=|	!	!LO:TX:a:t=|	!	!LO:TX:a:t=|	!	!	!	!	!	!	!	!	!
!LO:TX:t=P:problem:oznaczenie metryczne C z ogonkiem	!	!LO:TX:t=P:problem:oznaczenie metryczne C z ogonkiem	!	!LO:TX:t=P:problem:oznaczenie metryczne C z ogonkiem	!	!LO:TX:t=P:problem:oznaczenie metryczne C z ogonkiem	!	!LO:TX:t=P:problem:oznaczenie metryczne C z ogonkiem	!	!LO:TX:t=P:problem:oznaczenie metryczne C z ogonkiem	!	!LO:TX:t=P:problem:oznaczenie metryczne C z ogonkiem	!	!LO:TX:t=P:problem:oznaczenie metryczne C z ogonkiem	!LO:TX:t=P:problem:oznaczenie metryczne C z ogonkiem
!LO:TX:a:B:t=Allegro Moderato	!	!LO:TX:a:B:t=allo mod&colon;	!	!LO:TX:a:B:t=allo mod&colon;	!	!LO:TX:a:B:t=allo mod&colon;	!	!LO:TX:a:B:t=allo mod&colon;	!	!LO:TX:a:B:t=allo mod&colon;	!	!LO:TX:a:B:t=allo mod&colon;	!	!LO:TX:a:B:t=allo mod&colon;	!LO:TX:a:B:t=allo mod&colon;
!LO:TX:a:B:t=Sinffonia	!	!LO:TX:a:B:t=Sinffonia	!	!LO:TX:a:B:t=Sinffonia	!	!LO:TX:a:B:t=Sinffonia	!	!LO:TX:a:B:t=Sinffonia	!	!LO:TX:a:B:t=Sinffonia	!	!LO:TX:a:B:t=Sinffonia	!	!LO:TX:a:B:t=Sinffonia	!LO:TX:a:B:t=Sinffonia
*all\right	*	*all\right	*	*all\right	*	*all\right	*	*all\right	*	*all\right	*	*all\right	*	*all\right	*all\right
*2\right	*	*2\right	*	*2\right	*	*2\right	*	*2\right	*	*2\right	*	*2\right	*	*2\right	*2\right
!	!LO:DY:b:t=for	!	!LO:DY:b:t=for	!	!LO:DY:b:t=for	!	!	!	!LO:DY:b:t=for	!	!	!	!	!	!
2F\	f	2f\	f	2ff\	f	2ff\	.	2f|\	f	2ff|\	f	2F|\	.	2ff|\	2ff|\
!	!	!	!	!LO:TX:t=P:problem:all\r m l:global	!	!	!	!	!	!	!	!	!	!	!
!LO:TX:a:t=|	!	!LO:TX:a:t=|	!	!LO:TX:a:t=|	!	!LO:TX:a:t=|	!	!	!	!	!	!	!	!	!
4.C/	.	4.c/	.	4.cc\	.	4.cc\	.	4.c/	.	4.cc\	.	4.C|/	.	4.cc|\	4.cc|\
!LO:TX:a:t=|	!	!LO:TX:a:t=|	!	!LO:TX:a:t=|	!	!LO:TX:a:t=|	!	!	!	!	!	!LO:TX:a:t=|	!	!LO:TX:a:t=|	!
8AA/	.	8A/	.	8a\	.	8a\	.	8A/	.	8a|\	.	8AA/	.	8a\	8a|\
=2	=2	=2	=2	=2	=2	=2	=2	=2	=2	=2	=2	=2	=2	=2	=2
!	!	!	!LO:DY:b:t=pia	!	!	!	!	!	!LO:DY:b:t=pia	!	!	!	!	!	!
2FF/	.	4F/	p	2f/	.	2f/	.	[1F	p	[1f	p	2FF/	.	2f/	2f/
.	.	4F/	.	.	.	.	.	.	.	.	.	.	.	.	.
2r	.	4F/	.	4r	.	4r	.	.	.	.	.	2r	.	4r	4r
!	!	!	!	!	!LO:DY:b:t=pia	!	!	!	!	!	!	!	!	!	!
.	.	4F/	.	4c/	p	4a/	.	.	.	.	.	.	.	4cc\	4aa\
=3	=3	=3	=3	=3	=3	=3	=3	=3	=3	=3	=3	=3	=3	=3	=3
!	!	!	!	!	!	!	!LO:DY:b:t=piano.	!	!	!	!	!	!	!	!
1r	.	4F/	.	(4B-/	.	(4g/	p	1F_	.	1f_	.	1r	.	(4b-\	(4gg\
.	.	4F/	.	4A/)	.	4f/)	.	.	.	.	.	.	.	4a\)	4ff\)
.	.	4F/	.	(4B-/	.	(4g/	.	.	.	.	.	.	.	(4b-\	(4gg\
.	.	4F/	.	4c/)	.	4a/)	.	.	.	.	.	.	.	4cc\)	4aa\)
!	!	!	!	!	!	!LO:LB:g=original	!	!	!	!	!	!	!	!	!
=4	=4	=4	=4	=4	=4	=4	=4	=4	=4	=4	=4	=4	=4	=4	=4
4r	.	4F/	.	(8B-/L	.	(8g/L	.	1F_	.	1f_	.	4r	.	(8b-\L	(8gg\L
.	.	.	.	8A/J)	.	8f/J)	.	.	.	.	.	.	.	8a\J)	8ff\J)
!	!	!LO:TX:t=P:problem:all\r m l:global	!	!	!	!	!	!	!	!	!	!	!	!	!
!	!LO:DY:b:t=for	!	!	!	!	!	!	!	!	!	!	!	!	!	!
4F\	f	4f\	.	4A/	.	4f/	.	.	.	.	.	4F\	.	4a\	4ff\
!	!	!	!LO:DY:b:t=for	!	!	!	!	!	!	!	!	!	!	!	!
2FF/	.	4F/	f	4r	.	4r	.	.	.	.	.	2FF/	.	4r	4r
!	!	!	!	!LO:LB:g=original	!	!	!	!	!	!	!	!	!	!	!
.	.	4F/	.	4c/	.	4a/	.	.	.	.	.	.	.	4cc\	4aa\
!	!	!LO:LB:g=original	!	!	!	!	!	!	!	!	!	!	!	!LO:LB:g=original	!
=5	=5	=5	=5	=5	=5	=5	=5	=5	=5	=5	=5	=5	=5	=5	=5
!	!	!	!LO:DY:b:t=pia	!	!	!	!	!	!	!	!	!	!	!	!
1r	.	4F/	p	(4B-/	.	(4g/	.	1F_	.	1f_	.	1r	.	(4b-\	(4gg\
.	.	4F/	.	4A/)	.	4f/)	.	.	.	.	.	.	.	4a\)	4ff\)
.	.	4F/	.	(4B-/	.	(4g/	.	.	.	.	.	.	.	(4b-\	(4gg\
.	.	4F/	.	4c/)	.	4a/)	.	.	.	.	.	.	.	4cc\)	4aa\)
=6	=6	=6	=6	=6	=6	=6	=6	=6	=6	=6	=6	=6	=6	=6	=6
4r	.	4F/	.	(8B-/L	.	(8g/L	.	1F_	.	1f_	.	4r	.	(8b-\L	(8gg\L
.	.	.	.	8A/J)	.	8f/J)	.	.	.	.	.	.	.	8a\J)	8ff\J)
!	!LO:DY:b:t=for	!	!	!	!	!	!	!	!	!	!	!	!	!	!
4F\	f	4f\	.	4A'/	.	4f/	.	.	.	.	.	4F\	.	4a\	4ff\
!	!	!	!LO:DY:b:t=for	!	!	!	!	!	!	!	!	!	!	!	!
2FF/	.	4F/	f	4r	.	4r	.	.	.	.	.	2FF/	.	2r	2r
!LO:LB:g=original	!	!	!	!	!	!	!	!	!	!	!	!LO:LB:g=original	!	!	!
.	.	4F/	.	4a\	.	4cc\	.	.	.	.	.	.	.	.	.
=7	=7	=7	=7	=7	=7	=7	=7	=7	=7	=7	=7	=7	=7	=7	=7
!	!LO:DY:b:t=pia	!	!LO:DY:b:t=pia	!	!	!	!	!	!	!	!	!	!LO:DY:b:t=pia:	!	!
4F\	p	4F/	p	2b-\	.	2dd\	.	1F]	.	1f]	.	4F\	p	1r	1r
!	!	!	!	!	!	!	!	!LO:LB:g=original	!	!	!	!	!	!	!
4F\	.	4F/	.	.	.	.	.	.	.	.	.	4F\	.	.	.
!	!	!	!	!LO:TX:t=P:problem:niejednoznaczny zapis łuku	!	!	!	!	!	!	!	!	!	!	!
4F\	.	4F/	.	(4.dd\	.	4.ff\	.	.	.	.	.	4F\	.	.	.
4F\	.	4F/	.	.	.	.	.	.	.	.	.	4F\	.	.	.
.	.	.	.	16cc\LL)	.	(16ee\LL	.	.	.	.	.	.	.	.	.
.	.	.	.	16b-\JJ	.	16dd\JJ)	.	.	.	.	.	.	.	.	.
=8	=8	=8	=8	=8	=8	=8	=8	=8	=8	=8	=8	=8	=8	=8	=8
!	!	!	!	!	!	!LO:TX:a:t=|	!	!	!	!	!	!	!	!	!
4F\	.	4F/	.	4.a'/	.	4.cc\	.	2.A/	.	2.f\	.	4F\	.	2r	2r
4F\	.	4F/	.	.	.	.	.	.	.	.	.	4F\	.	.	.
!	!	!	!	!	!	!LO:TX:a:t=|	!	!	!	!	!	!	!	!	!
.	.	.	.	8f'/	.	8a\	.	.	.	.	.	.	.	.	.
!	!	!	!	!	!	!LO:LB:g=original	!	!	!	!	!	!	!	!	!
!	!	!	!	!	!	!LO:TX:b:t=|	!	!	!	!	!	!	!	!	!
4F\	.	4F/	.	4A'/	.	4f/	.	.	.	.	.	4F\	.	4r	4r
!	!	!	!	!	!	!LO:TX:b:t=|	!	!	!	!	!	!	!	!	!
4F\	.	4F/	.	4f'/	.	4a/	.	4f\	.	4a\	.	4F\	.	4ff\	4aa\
!	!	!	!	!	!	!	!	!	!	!LO:LB:g=original	!	!	!	!	!
=9	=9	=9	=9	=9	=9	=9	=9	=9	=9	=9	=9	=9	=9	=9	=9
4C\	.	4C/	.	4e'/	.	4g/	.	4c'/	.	4g'\	.	4C/	.	4ee'\	4gg'\
4C\	.	4C/	.	4f'/	.	4a/	.	4f'\	.	4a'\	.	4C/	.	4ff'\	4aa'\
4C\	.	4C/	.	(8a/L	.	(8cc/L	.	(8a\L	.	(8cc\L	.	4C/	.	(8aa\L	(8ccc\L
.	.	.	.	8g/)	.	8b-/)	.	8g\	.	8b-\)	.	.	.	8gg\)	8bb-\)
4C\	.	4C/	.	(8f/	.	(8a/	.	8f\	.	(8a\	.	4C/	.	(8ff\	(8aa\
.	.	.	.	8e/J)	.	8g/J)	.	8c\J)	.	8g\J)	.	.	.	8ee\J)	8gg\J)
!	!	!	!	!	!	!	!	!	!	!	!	!	!	!	!LO:LB:g=original
=10	=10	=10	=10	=10	=10	=10	=10	=10	=10	=10	=10	=10	=10	=10	=10
4F\	.	4F/	.	(8g/L	.	(8b-\L	.	(8g\L	.	(8b-\L	.	4F\	.	(8gg\L	(8bb-\L
.	.	.	.	8f/)	.	8a\)	.	8f\)	.	8a\)	.	.	.	8ff\)	8aa\)
4F\	.	4F/	.	(8b-/	.	(8dd\	.	(8b-\	.	(8dd\	.	4F\	.	(8bb-\	(8ddd\
.	.	.	.	8a/J)	.	8cc\J)	.	8a\J)	.	8cc\J)	.	.	.	8aa\J)	8ccc\J)
4F\	.	4F/	.	4a/	.	4cc\	.	4a\	.	4cc\	.	4F\	.	4aa\	4ccc\
4F\	.	4F/	.	4r	.	4r	.	4r	.	4r	.	4F\	.	4r	4r
!	!	!	!	!LO:LB:g=original	!	!	!	!	!	!	!	!	!	!	!
=11	=11	=11	=11	=11	=11	=11	=11	=11	=11	=11	=11	=11	=11	=11	=11
4F\	.	4F/	.	2b-\	.	2dd\	.	1F	.	[1f	.	4F\	.	1r	1r
4F\	.	4F/	.	.	.	.	.	.	.	.	.	4F\	.	.	.
!	!	!	!	!	!	!LO:TX:t=P:problem:niejednoznaczny zapis łuku	!	!	!	!	!	!	!	!	!
4F\	.	4F/	.	(4.dd\	.	(4.ff\	.	.	.	.	.	4F\	.	.	.
4F\	.	4F/	.	.	.	.	.	.	.	.	.	4F\	.	.	.
.	.	.	.	16cc\LL	.	16ee\LL)	.	.	.	.	.	.	.	.	.
.	.	.	.	16b-\JJ)	.	16dd\JJ	.	.	.	.	.	.	.	.	.
=12	=12	=12	=12	=12	=12	=12	=12	=12	=12	=12	=12	=12	=12	=12	=12
!	!	!	!	!	!	!LO:TX:a:t=|	!	!	!	!	!	!	!	!	!
4F\	.	4F/	.	4.a'/	.	4.cc\	.	2.A/	.	2.f\]	.	4F\	.	2r	2r
4F\	.	4F/	.	.	.	.	.	.	.	.	.	4F\	.	.	.
!	!	!	!	!	!	!LO:TX:a:t=|	!	!	!	!	!	!	!	!	!
.	.	.	.	8f'/	.	8a\	.	.	.	.	.	.	.	.	.
!	!	!	!	!	!	!LO:TX:a:t=|	!	!	!	!	!	!	!	!	!
4F\	.	4F/	.	4A'/	.	4f/	.	.	.	.	.	4F\	.	4r	4r
!	!	!	!	!	!	!LO:TX:a:t=|	!	!	!	!	!	!	!	!	!
4F\	.	4F/	.	4f'/	.	4a/	.	4f\	.	4a\	.	4F\	.	4ff\	4aa\
!	!	!LO:LB:g=original	!	!	!	!LO:LB:g=original	!	!	!	!	!	!	!	!	!
=13	=13	=13	=13	=13	=13	=13	=13	=13	=13	=13	=13	=13	=13	=13	=13
4C\	.	4C/	.	4e'/	.	4g/	.	4c'/	.	4g\	.	4C/	.	4ee'\	4gg\
4C\	.	4C/	.	4f'/	.	4a/	.	4f'\	.	4a\	.	4C/	.	4ff'\	4aa\
4C\	.	4C/	.	(8a/L	.	(8cc\L	.	(8a\L	.	(8cc\L	.	4C/	.	(8aa\L	(8ccc\L
.	.	.	.	8g/)	.	8b-\)	.	8g\)	.	8b-\)	.	.	.	8gg\)	8bb-\)
4C\	.	4C/	.	(8f/	.	(8a\	.	(8f\	.	(8a\	.	4C/	.	(8ff\	(8aa\
.	.	.	.	8e/J)	.	8g\J)	.	8c\J)	.	8g\J)	.	.	.	8ee\J)	8gg\J)
!	!	!	!	!	!	!	!	!	!	!	!	!	!	!LO:LB:g=original	!
=14	=14	=14	=14	=14	=14	=14	=14	=14	=14	=14	=14	=14	=14	=14	=14
*	*	*	*	*^	*	*	*	*	*	*	*	*	*	*	*
!	!LO:DY:b:t=for	!	!LO:DY:b:t=for	!	!	!LO:DY:b:t=for	!	!LO:DY:b:t=for	!	!LO:DY:b:t=for	!	!	!	!LO:DY:b:t=for	!	!
4F\	f	4F/	f	8a/	8f\	f	8f/	f	[1A	f	[1f	f	4F\	f	2ff\	[1ff
.	.	.	.	4a/	8ryy	.	4ff\	.	.	.	.	.	.	.	.	.
8r	.	8r	.	.	4ryy	.	.	.	.	.	.	.	8r	.	.	.
!LO:TX:t=P:problem:klamra łukowa kropka zamiast numeru:global	!	!LO:TX:t=P:problem:klamra łukowa kropka zamiast numeru:global	!	!	!	!	!	!	!	!	!	!	!LO:TX:t=P:problem:klamra łukowa kropka zamiast numeru:global	!	!	!
24C\LL	.	24C/LL	.	4a/	.	.	4ff\	.	.	.	.	.	24C\LL	.	.	.
24D\	.	24D/	.	.	.	.	.	.	.	.	.	.	24D\	.	.	.
24E\JJ	.	24E/JJ	.	.	.	.	.	.	.	.	.	.	24E\JJ	.	.	.
!LO:LB:g=original	!	!	!	!	!	!	!	!	!	!	!	!	!	!	!	!
4F'\	.	4F/	.	.	2ryy	.	.	.	.	.	.	.	4F'\	.	[2a/	.
.	.	.	.	4a/	.	.	4ff\	.	.	.	.	.	.	.	.	.
4A'\	.	4A/	.	.	.	.	.	.	.	.	.	.	4A'\	.	.	.
!	!	!	!	!	!	!	!	!	!	!	!	!	!LO:LB:g=original	!	!	!
.	.	.	.	[8a/	.	.	[8ff\	.	.	.	.	.	.	.	.	.
*	*	*	*	*v	*v	*	*	*	*	*	*	*	*	*	*	*
=15	=15	=15	=15	=15	=15	=15	=15	=15	=15	=15	=15	=15	=15	=15	=15
4F'\	.	4F'/	.	8a/]	.	8ff\]	.	1A]	.	1f]	.	4F'\	.	1a]	1ff]
.	.	.	.	4a/	.	4ff\	.	.	.	.	.	.	.	.	.
4C'\	.	4C'/	.	.	.	.	.	.	.	.	.	4C'\	.	.	.
.	.	.	.	4a/	.	4ff\	.	.	.	.	.	.	.	.	.
4F'\	.	4F'/	.	.	.	.	.	.	.	.	.	4F'\	.	.	.
.	.	.	.	4a/	.	4ff\	.	.	.	.	.	.	.	.	.
4A'\	.	4A'/	.	.	.	.	.	.	.	.	.	4A'\	.	.	.
.	.	.	.	8a/	.	(8ff\	.	.	.	.	.	.	.	.	.
=16	=16	=16	=16	=16	=16	=16	=16	=16	=16	=16	=16	=16	=16	=16	=16
4G\	.	4G/	.	8b-/	.	8gg\)	.	[1c	.	[1g	.	4G\	.	[1b-	[1gg
.	.	.	.	4b-/	.	4gg\	.	.	.	.	.	.	.	.	.
8r	.	8r	.	.	.	.	.	.	.	.	.	8r	.	.	.
(32C\LLL	.	(32C/LLL	.	4b-/	.	4gg\	.	.	.	.	.	(32C\LLL	.	.	.
32D\	.	32D/	.	.	.	.	.	.	.	.	.	32D\	.	.	.
32E\	.	32E/	.	.	.	.	.	.	.	.	.	32E\	.	.	.
32F\JJJ)	.	32F/JJJ)	.	.	.	.	.	.	.	.	.	32F\JJJ)	.	.	.
4G'\	.	4G/	.	.	.	.	.	.	.	.	.	4G'\	.	.	.
.	.	.	.	4b-/	.	4gg\	.	.	.	.	.	.	.	.	.
4E'\	.	4E/	.	.	.	.	.	.	.	.	.	4E'\	.	.	.
.	.	.	.	[8b-/	.	[8gg\	.	.	.	.	.	.	.	.	.
!	!	!	!	!LO:LB:g=original	!	!LO:LB:g=original	!	!	!	!	!	!	!	!	!
=17	=17	=17	=17	=17	=17	=17	=17	=17	=17	=17	=17	=17	=17	=17	=17
4C'\	.	4C'/	.	8b-/]	.	8gg\]	.	1c]	.	1g]	.	4C'/	.	1b-]	1gg]
!	!	!	!	!	!	!	!	!LO:LB:g=original	!	!LO:LB:g=original	!	!	!	!	!
.	.	.	.	4b-/	.	4gg\	.	.	.	.	.	.	.	.	.
4G'\	.	4G'/	.	.	.	.	.	.	.	.	.	4G'\	.	.	.
.	.	.	.	4b-/	.	4gg\	.	.	.	.	.	.	.	.	.
4E'\	.	4E'/	.	.	.	.	.	.	.	.	.	4E'\	.	.	.
.	.	.	.	4b-/	.	4gg\	.	.	.	.	.	.	.	.	.
4C'\	.	4C'/	.	.	.	.	.	.	.	.	.	4C|\	.	.	.
.	.	.	.	8b-/	.	(8gg\	.	.	.	.	.	.	.	.	.
=18	=18	=18	=18	=18	=18	=18	=18	=18	=18	=18	=18	=18	=18	=18	=18
4F\	.	4F/	.	8a/	.	8ff\)	.	1A	.	[1f	.	4F\	.	1a	[1ff
.	.	.	.	4a/	.	4ff\	.	.	.	.	.	.	.	.	.
8r	.	8r	.	.	.	.	.	.	.	.	.	8r	.	.	.
24C\LL	.	24c\LL	.	4a/	.	4ff\	.	.	.	.	.	24C\LL	.	.	.
24D\	.	24d\	.	.	.	.	.	.	.	.	.	24D\	.	.	.
24E\JJ	.	24e\JJ	.	.	.	.	.	.	.	.	.	24E\JJ	.	.	.
8F'\L	.	8f'\L	.	.	.	.	.	.	.	.	.	8F'\L	.	.	.
8E'\	.	8e'\	.	4a/	.	4ff\	.	.	.	.	.	8E'\	.	.	.
8F'\	.	8f'\	.	.	.	.	.	.	.	.	.	8F'\	.	.	.
8E'\J	.	8e'\J	.	8a/	.	[8ff\	.	.	.	.	.	8E'\J	.	.	.
!	!	!LO:LB:g=original	!	!	!	!	!	!	!	!	!	!	!	!	!
=19	=19	=19	=19	=19	=19	=19	=19	=19	=19	=19	=19	=19	=19	=19	=19
4D\	.	4d\	.	8dd\	.	8ff\]	.	[1F	.	1f]	.	4D\	.	[1dd	1ff_
.	.	.	.	4dd\	.	4ff\	.	.	.	.	.	.	.	.	.
8r	.	8r	.	.	.	.	.	.	.	.	.	8r	.	.	.
24AA/LL	.	24A/LL	.	4dd\	.	4ff\	.	.	.	.	.	24AA/LL	.	.	.
24BB-/	.	24B-/	.	.	.	.	.	.	.	.	.	24BB-/	.	.	.
24C/JJ	.	24c/JJ	.	.	.	.	.	.	.	.	.	24C/JJ	.	.	.
8D'/L	.	8d'\L	.	.	.	.	.	.	.	.	.	8D'/L	.	.	.
8C'/	.	8c'\	.	4dd\	.	4ff\	.	.	.	.	.	8C'/	.	.	.
8D'/	.	8d'\	.	.	.	.	.	.	.	.	.	8D'/	.	.	.
8C'/J	.	8c'\J	.	[8dd\	.	[8ff\	.	.	.	.	.	8C'/J	.	.	.
!LO:LB:g=original	!	!	!	!	!	!	!	!	!	!	!	!	!	!	!
=20	=20	=20	=20	=20	=20	=20	=20	=20	=20	=20	=20	=20	=20	=20	=20
4BB-/	.	4B-/	.	8dd\]	.	8ff\]	.	1F]	.	1f	.	4BB-/	.	1dd]	1ff]
.	.	.	.	4dd\	.	4ff\	.	.	.	.	.	.	.	.	.
8r	.	8r	.	.	.	.	.	.	.	.	.	8r	.	.	.
16GG/LL	.	(16G/LL	.	4dd\	.	4ff\	.	.	.	.	.	(16GG/LL	.	.	.
16AA/JJ	.	16A/JJ)	.	.	.	.	.	.	.	.	.	16AA/JJ)	.	.	.
!	!	!	!	!	!	!	!	!	!	!	!	!LO:LB:g=original	!	!	!
4BB-/	.	4B-/	.	.	.	.	.	.	.	.	.	4BB-/	.	.	.
.	.	.	.	4dd\	.	4ff\	.	.	.	.	.	.	.	.	.
8r	.	8r	.	.	.	.	.	.	.	.	.	8r	.	.	.
8BBn/	.	8Bn/	.	8dd\	.	8ff\	.	.	.	.	.	8BBn/	.	.	.
!	!	!	!	!	!	!LO:LB:g=original	!	!	!	!	!	!	!	!	!
=21	=21	=21	=21	=21	=21	=21	=21	=21	=21	=21	=21	=21	=21	=21	=21
8.C/L	.	8.c/L	.	4cc\	.	4ee\	.	4C/	.	4c/	.	8.C/L	.	4cc\	4ee\
16c\K	.	16c/Jk	.	.	.	.	.	.	.	.	.	16c\Jk	.	.	.
8.G\	.	8.G/L	.	8.G/L 8.e	.	8.cc\L	.	8.C/L	.	8.c/L	.	8.G\L	.	8.e/L	8.cc\L
16E\Jk	.	16E/Jk	.	16G/Jk 16e	.	16cc\Jk	.	16C/Jk	.	16c/Jk	.	16E\Jk	.	16e/Jk	16cc\Jk
4C\	.	4C/	.	4G/ 4e	.	4cc\	.	4C/	.	4c/	.	4C/	.	4e/	4cc\
4r	.	4r	.	4r	.	4r	.	4r	.	4r	.	4r	.	4r	4r
!	!	!	!	!LO:LB:g=original	!	!	!	!	!	!	!	!	!	!	!
=22	=22	=22	=22	=22	=22	=22	=22	=22	=22	=22	=22	=22	=22	=22	=22
!	!	!	!LO:DY:b:t=pia	!LO:TX:a:t=Solo	!LO:DY:b:t=pia	!LO:TX:a:t=Solo.	!LO:DY:b:t=pia.	!LO:TX:a:t=29.	!	!LO:TX:a:t=29.	!	!	!	!LO:TX:a:t=29.	!LO:TX:a:t=Solo
1r	.	4c\	p	4G/	p	4e/	p	1r	.	1r	.	1r	.	1r	1gg
!	!	!	!	!	!	!	!	!	!	!	!	!	!	!	!LO:LB:g=original
.	.	4c\	.	4G/	.	4e/	.	.	.	.	.	.	.	.	.
.	.	4c\	.	4G/	.	4e/	.	.	.	.	.	.	.	.	.
.	.	4c\	.	4G/	.	4e/	.	.	.	.	.	.	.	.	.
=23	=23	=23	=23	=23	=23	=23	=23	=23	=23	=23	=23	=23	=23	=23	=23
1r	.	4c\	.	4G/	.	4e/	.	1r	.	1r	.	1r	.	1r	(8ff#X\L
.	.	.	.	.	.	.	.	.	.	.	.	.	.	.	8gg\)
.	.	4c\	.	4G/	.	4e/	.	.	.	.	.	.	.	.	(8aa\
.	.	.	.	.	.	.	.	.	.	.	.	.	.	.	8gg\J)
.	.	4c\	.	4G/	.	4e/	.	.	.	.	.	.	.	.	(8ff#\L
.	.	.	.	.	.	.	.	.	.	.	.	.	.	.	8gg\)
.	.	4c\	.	4G/	.	4e/	.	.	.	.	.	.	.	.	(8ee\
.	.	.	.	.	.	.	.	.	.	.	.	.	.	.	8cc\J)
=24	=24	=24	=24	=24	=24	=24	=24	=24	=24	=24	=24	=24	=24	=24	=24
1r	.	4G/ 4d	.	4G/	.	4f/	.	1r	.	1r	.	1r	.	1r	(4cc\
.	.	4G/ 4d	.	4G/	.	4f/	.	.	.	.	.	.	.	.	4bn\)
.	.	4G/ 4d	.	4G/	.	4f/	.	.	.	.	.	.	.	.	[2b\
.	.	4G/ 4d	.	4G/	.	4f/	.	.	.	.	.	.	.	.	.
!	!	!LO:LB:g=original	!	!	!	!	!	!	!	!	!	!	!	!	!
=25	=25	=25	=25	=25	=25	=25	=25	=25	=25	=25	=25	=25	=25	=25	=25
1r	.	4G/ 4d	.	4G/	.	4f/	.	1r	.	1r	.	1r	.	1r	8b\L]
.	.	.	.	.	.	.	.	.	.	.	.	.	.	.	(8cc\
.	.	4G/ 4d	.	4G/	.	4f/	.	.	.	.	.	.	.	.	8dd\
.	.	.	.	.	.	.	.	.	.	.	.	.	.	.	8ee\J)
.	.	4G/ 4d	.	4G/	.	4f/	.	.	.	.	.	.	.	.	(8ffn\L
.	.	.	.	.	.	.	.	.	.	.	.	.	.	.	8dd\
.	.	4G/ 4d	.	4G/	.	4f/	.	.	.	.	.	.	.	.	8cc\
!	!	!	!	!	!	!LO:LB:g=original	!	!	!	!	!	!	!	!	!LO:TX:a:t=SIC&colon;s=8bn
.	.	.	.	.	.	.	.	.	.	.	.	.	.	.	8b-X\J)
=26	=26	=26	=26	=26	=26	=26	=26	=26	=26	=26	=26	=26	=26	=26	=26
1r	.	4c\	.	4G/	.	4e/	.	1r	.	1r	.	1r	.	1r	(8dd\L
.	.	.	.	.	.	.	.	.	.	.	.	.	.	.	8cc\
.	.	4c\	.	4G/	.	4e/	.	.	.	.	.	.	.	.	8bn\
.	.	.	.	.	.	.	.	.	.	.	.	.	.	.	8cc\J)
.	.	4c\	.	4G/	.	4e/	.	.	.	.	.	.	.	.	4g/
.	.	4c\	.	4G/	.	4e/	.	.	.	.	.	.	.	.	4r
=27	=27	=27	=27	=27	=27	=27	=27	=27	=27	=27	=27	=27	=27	=27	=27
!	!	!	!LO:DY:b:t=for	!	!LO:DY:b:t=for	!	!LO:DY:b:t=for.	!	!	!	!	!	!	!	!
8r	.	(8e\L	f	(8e/L	f	(8e/L	f	1r	.	1r	.	8r	.	1r	1r
!	!LO:DY:b:t=for	!	!	!	!	!	!	!	!	!	!	!	!	!	!
(8G\L	f	8g\)	.	8g/)	.	8g/	.	.	.	.	.	(8G\L	.	.	.
8A\	.	(8a\	.	(8a/	.	8a/	.	.	.	.	.	8A\	.	.	.
8G\J)	.	8g\J)	.	8g/J)	.	8g/J)	.	.	.	.	.	8G\J)	.	.	.
(8F\L	.	(8f\L	.	(8f/L	.	(8f/L	.	.	.	.	.	(8F\L	.	.	.
8E\)	.	8e\)	.	8e/)	.	8e/)	.	.	.	.	.	8E\)	.	.	.
(8D\	.	(8d\	.	(8d/	.	(8d/	.	.	.	.	.	(8D\	.	.	.
8C\J)	.	8c\J)	.	8c/J)	.	8c/J)	.	.	.	.	.	8C\J)	.	.	.
=28	=28	=28	=28	=28	=28	=28	=28	=28	=28	=28	=28	=28	=28	=28	=28
!	!LO:DY:b:t=pia	!	!LO:DY:b:t=pia	!	!LO:DY:b:t=pia	!	!LO:DY:b:t=pia.	!	!	!	!	!	!	!	!
4C\	p	4c\	p	4G/	p	4e/	p	1r	.	1r	.	1r	.	1r	1gg
4r	.	4c\	.	4G/	.	4e/	.	.	.	.	.	.	.	.	.
2r	.	4c\	.	4G/	.	4e/	.	.	.	.	.	.	.	.	.
.	.	4c\	.	4G/	.	4e/	.	.	.	.	.	.	.	.	.
!	!	!	!	!LO:LB:g=original	!	!	!	!	!	!	!	!	!	!	!
=29	=29	=29	=29	=29	=29	=29	=29	=29	=29	=29	=29	=29	=29	=29	=29
1r	.	4c\	.	4G/	.	4e/	.	1r	.	1r	.	1r	.	1r	(8ff#X\L
.	.	.	.	.	.	.	.	.	.	.	.	.	.	.	8gg\
.	.	4c\	.	4G/	.	4e/	.	.	.	.	.	.	.	.	8aa\
.	.	.	.	.	.	.	.	.	.	.	.	.	.	.	8gg\J)
.	.	4c\	.	4G/	.	4e/	.	.	.	.	.	.	.	.	(8ff#\L
.	.	.	.	.	.	.	.	.	.	.	.	.	.	.	8gg\
.	.	4c\	.	4G/	.	4e/	.	.	.	.	.	.	.	.	8ee\
.	.	.	.	.	.	.	.	.	.	.	.	.	.	.	8cc\J)
=30	=30	=30	=30	=30	=30	=30	=30	=30	=30	=30	=30	=30	=30	=30	=30
1r	.	4G/ 4d	.	4G/	.	4f/	.	1r	.	1r	.	1r	.	1r	(4cc\
.	.	4G/ 4d	.	4G/	.	4f/	.	.	.	.	.	.	.	.	4bn\)
.	.	4G/ 4d	.	4G/	.	4f/	.	.	.	.	.	.	.	.	[2b\
!	!	!	!	!	!	!	!	!	!	!	!	!	!	!	!LO:LB:g=original
.	.	4G/ 4d	.	4G/	.	4f/	.	.	.	.	.	.	.	.	.
=31	=31	=31	=31	=31	=31	=31	=31	=31	=31	=31	=31	=31	=31	=31	=31
1r	.	4G/ 4d	.	4G/	.	4f/	.	1r	.	1r	.	1r	.	1r	8bn\L]
.	.	.	.	.	.	.	.	.	.	.	.	.	.	.	(8cc\
.	.	4G/ 4d	.	4G/	.	4f/	.	.	.	.	.	.	.	.	8dd\
.	.	.	.	.	.	.	.	.	.	.	.	.	.	.	8ee\J)
.	.	4G/ 4d	.	4G/	.	4f/	.	.	.	.	.	.	.	.	(8ffn\L
.	.	.	.	.	.	.	.	.	.	.	.	.	.	.	8dd\
.	.	4G/ 4d	.	4G/	.	4f/	.	.	.	.	.	.	.	.	8cc\
!	!	!LO:LB:g=original	!	!	!	!	!	!	!	!	!	!	!	!	!
.	.	.	.	.	.	.	.	.	.	.	.	.	.	.	8b\J)
=32	=32	=32	=32	=32	=32	=32	=32	=32	=32	=32	=32	=32	=32	=32	=32
!	!LO:DY:b:t=pia	!	!	!	!	!	!	!	!	!	!	!	!	!	!
4C\	p	4c/	.	4G/	.	4e/	.	1r	.	1r	.	1r	.	1r	4cc\
4C\	.	4r	.	4e/	.	4g/	.	.	.	.	.	.	.	.	4gg\
4C\	.	2r	.	4e/	.	4g/	.	.	.	.	.	.	.	.	[2gg\
4C\	.	.	.	4e/	.	4g/	.	.	.	.	.	.	.	.	.
!LO:LB:g=original	!	!	!	!	!	!LO:LB:g=original	!	!	!	!	!	!	!	!	!
=33	=33	=33	=33	=33	=33	=33	=33	=33	=33	=33	=33	=33	=33	=33	=33
4C\	.	1r	.	4e/	.	4g/	.	1r	.	1r	.	1r	.	1r	4gg\]
4C\	.	.	.	4e/	.	4g/	.	.	.	.	.	.	.	.	(8aa\L
.	.	.	.	.	.	.	.	.	.	.	.	.	.	.	8gg\J)
4C\	.	.	.	4e/	.	4g/	.	.	.	.	.	.	.	.	(8ff\L
.	.	.	.	.	.	.	.	.	.	.	.	.	.	.	8ee\)
4C\	.	.	.	4e/	.	4g/	.	.	.	.	.	.	.	.	(8dd\
.	.	.	.	.	.	.	.	.	.	.	.	.	.	.	8cc\J)
=34	=34	=34	=34	=34	=34	=34	=34	=34	=34	=34	=34	=34	=34	=34	=34
4F\	.	1r	.	4c/	.	4a/	.	1r	.	1r	.	1r	.	1r	(4cc\
4F\	.	.	.	4c/	.	4a/	.	.	.	.	.	.	.	.	4aa\)
4F\	.	.	.	4c/	.	4a/	.	.	.	.	.	.	.	.	[2aa\
4F\	.	.	.	4c/	.	4a/	.	.	.	.	.	.	.	.	.
=35	=35	=35	=35	=35	=35	=35	=35	=35	=35	=35	=35	=35	=35	=35	=35
4F\	.	1r	.	4c/	.	4a/	.	1r	.	1r	.	1r	.	1r	8aa\L]
.	.	.	.	.	.	.	.	.	.	.	.	.	.	.	(8bbn\
4F\	.	.	.	4c/	.	4a/	.	.	.	.	.	.	.	.	8ccc\
.	.	.	.	.	.	.	.	.	.	.	.	.	.	.	8bb\J)
4F\	.	.	.	4c/	.	4a/	.	.	.	.	.	.	.	.	(8ddd\L
.	.	.	.	.	.	.	.	.	.	.	.	.	.	.	8ccc\)
4F\	.	.	.	4c/	.	4a/	.	.	.	.	.	.	.	.	(8bb\
!	!	!	!	!LO:LB:g=original	!	!	!	!	!	!	!	!	!	!	!
.	.	.	.	.	.	.	.	.	.	.	.	.	.	.	8aa\J)
=36	=36	=36	=36	=36	=36	=36	=36	=36	=36	=36	=36	=36	=36	=36	=36
4C\	.	1r	.	4e/	.	4g/	.	1r	.	1r	.	1r	.	1r	(8aa\L
.	.	.	.	.	.	.	.	.	.	.	.	.	.	.	8gg\
4C\	.	.	.	4e/	.	4g/	.	.	.	.	.	.	.	.	8ff#X\
.	.	.	.	.	.	.	.	.	.	.	.	.	.	.	8gg\J)
4C\	.	.	.	4e/	.	4g/	.	.	.	.	.	.	.	.	[2gg\
4C\	.	.	.	4e/	.	4g/	.	.	.	.	.	.	.	.	.
=37	=37	=37	=37	=37	=37	=37	=37	=37	=37	=37	=37	=37	=37	=37	=37
4GG/	.	1r	.	4d/	.	4bn\	.	1r	.	1r	.	1r	.	1r	8gg\L]
.	.	.	.	.	.	.	.	.	.	.	.	.	.	.	(8aa\
4GG/	.	.	.	4d/	.	4b\	.	.	.	.	.	.	.	.	8bbn\
.	.	.	.	.	.	.	.	.	.	.	.	.	.	.	8ccc\J)
!	!	!	!	!	!	!	!	!	!	!	!	!	!	!	!LO:LB:g=original
4GG/	.	.	.	4d/	.	4b\	.	.	.	.	.	.	.	.	(8ddd\L
.	.	.	.	.	.	.	.	.	.	.	.	.	.	.	8bbn\
4GG/	.	.	.	4d/	.	4b\	.	.	.	.	.	.	.	.	8gg\
.	.	.	.	.	.	.	.	.	.	.	.	.	.	.	8ff\J)
=38	=38	=38	=38	=38	=38	=38	=38	=38	=38	=38	=38	=38	=38	=38	=38
(4c\	.	1r	.	4e/	.	4cc\	.	1r	.	1r	.	1r	.	1r	(8ee\L
.	.	.	.	.	.	.	.	.	.	.	.	.	.	.	8gg\
4G\)	.	.	.	4e/	.	4cc\	.	.	.	.	.	.	.	.	8ff#X\
.	.	.	.	.	.	.	.	.	.	.	.	.	.	.	8gg\J)
(4c\	.	.	.	4e/	.	4cc\	.	.	.	.	.	.	.	.	(8aa\L
.	.	.	.	.	.	.	.	.	.	.	.	.	.	.	8gg\
4G\)	.	.	.	4e/	.	4cc\	.	.	.	.	.	.	.	.	8ff#\
.	.	.	.	.	.	.	.	.	.	.	.	.	.	.	8gg\J)
=39	=39	=39	=39	=39	=39	=39	=39	=39	=39	=39	=39	=39	=39	=39	=39
(4Bn\	.	1r	.	4d/	.	4bn\	.	1r	.	1r	.	1r	.	1r	(8g/L
.	.	.	.	.	.	.	.	.	.	.	.	.	.	.	8bn/)
4G\)	.	.	.	4d/	.	4b\	.	.	.	.	.	.	.	.	(8dd/
.	.	.	.	.	.	.	.	.	.	.	.	.	.	.	8ee/J)
(4B\	.	.	.	4d/	.	4b\	.	.	.	.	.	.	.	.	(8ffn\L
.	.	.	.	.	.	.	.	.	.	.	.	.	.	.	8dd\)
4G\)	.	.	.	4d/	.	4b\	.	.	.	.	.	.	.	.	(8gg\
!	!	!	!	!	!	!LO:LB:g=original	!	!	!	!	!	!	!	!	!
.	.	.	.	.	.	.	.	.	.	.	.	.	.	.	8ff\J)
=40	=40	=40	=40	=40	=40	=40	=40	=40	=40	=40	=40	=40	=40	=40	=40
(4c\	.	1r	.	4e/	.	4cc\	.	1r	.	1r	.	1r	.	1r	(8ee\L
.	.	.	.	.	.	.	.	.	.	.	.	.	.	.	8gg\)
4G\)	.	.	.	4e/	.	4cc\	.	.	.	.	.	.	.	.	(8ff#X\
!LO:LB:g=original	!	!	!	!	!	!	!	!	!	!	!	!	!	!	!
.	.	.	.	.	.	.	.	.	.	.	.	.	.	.	8gg\J)
(4c\	.	.	.	4e/	.	4cc\	.	.	.	.	.	.	.	.	(8aa\L
.	.	.	.	.	.	.	.	.	.	.	.	.	.	.	8gg\
4G\)	.	.	.	4e/	.	4cc\	.	.	.	.	.	.	.	.	8ff#\
.	.	.	.	.	.	.	.	.	.	.	.	.	.	.	8gg\J)
=41	=41	=41	=41	=41	=41	=41	=41	=41	=41	=41	=41	=41	=41	=41	=41
(4Bn\	.	1r	.	4d/	.	4bn\	.	1r	.	1r	.	1r	.	1r	(8g/L
.	.	.	.	.	.	.	.	.	.	.	.	.	.	.	8bn/)
4G\)	.	.	.	4d/	.	4b\	.	.	.	.	.	.	.	.	(8dd/
.	.	.	.	.	.	.	.	.	.	.	.	.	.	.	8ee/J)
(4B\	.	.	.	4d/	.	4b\	.	.	.	.	.	.	.	.	8ffn\L
.	.	.	.	.	.	.	.	.	.	.	.	.	.	.	8dd\
4G\)	.	.	.	4d/	.	4b\	.	.	.	.	.	.	.	.	8gg\
.	.	.	.	.	.	.	.	.	.	.	.	.	.	.	8ff\J
=42	=42	=42	=42	=42	=42	=42	=42	=42	=42	=42	=42	=42	=42	=42	=42
4c\	.	1r	.	4e/	.	4cc\	.	1r	.	1r	.	1r	.	1r	(8ee\L
.	.	.	.	.	.	.	.	.	.	.	.	.	.	.	8cc\
4C/	.	.	.	4e/	.	4cc\	.	.	.	.	.	.	.	.	8dd\
.	.	.	.	.	.	.	.	.	.	.	.	.	.	.	8ee\J)
!	!	!	!	!	!	!	!	!	!	!	!	!	!	!	!LO:LB:g=original
4C/	.	.	.	4e/	.	4cc\	.	.	.	.	.	.	.	.	(8ff\L
.	.	.	.	.	.	.	.	.	.	.	.	.	.	.	8gg\
4C/	.	.	.	4e/	.	4cc\	.	.	.	.	.	.	.	.	8aa\
!	!	!	!	!LO:LB:g=original	!	!	!	!	!	!	!	!	!	!	!
.	.	.	.	.	.	.	.	.	.	.	.	.	.	.	8bbn\J)
=43	=43	=43	=43	=43	=43	=43	=43	=43	=43	=43	=43	=43	=43	=43	=43
4C/	.	1r	.	4g/	.	4ee\	.	1r	.	1r	.	1r	.	1r	(4ccc\
4C/	.	.	.	4g/	.	4ee\	.	.	.	.	.	.	.	.	4bb-X\)
4C/	.	.	.	4g/	.	4ee\	.	.	.	.	.	.	.	.	(4aa\
4C/	.	.	.	[4g#X/	.	4ee\	.	.	.	.	.	.	.	.	4gg#X\)
=44	=44	=44	=44	=44	=44	=44	=44	=44	=44	=44	=44	=44	=44	=44	=44
!	!	!	!	!	!	!	!	!	!	!	!	!	!	!	!LO:TX:a:t=SIC&colon;s=4gg#
4F\	.	1r	.	4g#X/]	.	(4ee\	.	1r	.	1r	.	1r	.	1r	(4gg\
4F\	.	.	.	4a/	.	4ff\)	.	.	.	.	.	.	.	.	4aa\)
4F\	.	.	.	4a'/	.	4ff'\	.	.	.	.	.	.	.	.	2aa\
4F\	.	.	.	4a'/	.	4ff'\	.	.	.	.	.	.	.	.	.
=45	=45	=45	=45	=45	=45	=45	=45	=45	=45	=45	=45	=45	=45	=45	=45
4F\	.	1r	.	4a/	.	4ff\	.	1r	.	1r	.	1r	.	1r	(8aa\L
.	.	.	.	.	.	.	.	.	.	.	.	.	.	.	8bbn\)
4F\	.	.	.	4a/	.	4ff\	.	.	.	.	.	.	.	.	(8ccc\
.	.	.	.	.	.	.	.	.	.	.	.	.	.	.	8bb\J)
4F\	.	.	.	4a/	.	4ff\	.	.	.	.	.	.	.	.	(8ccc\L
.	.	.	.	.	.	.	.	.	.	.	.	.	.	.	8aa\)
4F\	.	.	.	4a/	.	4ff\	.	.	.	.	.	.	.	.	(8gg\
.	.	.	.	.	.	.	.	.	.	.	.	.	.	.	8ff\J)
=46	=46	=46	=46	=46	=46	=46	=46	=46	=46	=46	=46	=46	=46	=46	=46
4C/	.	1r	.	4gn/	.	4ee\	.	1r	.	1r	.	1r	.	1r	(8ee\L
.	.	.	.	.	.	.	.	.	.	.	.	.	.	.	8ff#X\)
4C/	.	.	.	4e/	.	4cc\	.	.	.	.	.	.	.	.	(8gg\
.	.	.	.	.	.	.	.	.	.	.	.	.	.	.	8ff#\J)
4C/	.	.	.	4e/	.	4cc\	.	.	.	.	.	.	.	.	(8gg\L
.	.	.	.	.	.	.	.	.	.	.	.	.	.	.	8ff#\)
4C/	.	.	.	4e/	.	4cc\	.	.	.	.	.	.	.	.	(8gg\
.	.	.	.	.	.	.	.	.	.	.	.	.	.	.	8ff#\J)
=47	=47	=47	=47	=47	=47	=47	=47	=47	=47	=47	=47	=47	=47	=47	=47
4C/	.	1r	.	4e/	.	4cc\	.	1r	.	1r	.	1r	.	1r	4gg'\
4C/	.	.	.	4e/	.	4cc\	.	.	.	.	.	.	.	.	4ee'\
!	!	!	!	!	!	!LO:LB:g=original	!	!	!	!	!	!	!	!	!
4C/	.	.	.	4e/	.	4cc\	.	.	.	.	.	.	.	.	4dd'\
4C/	.	.	.	4e/	.	4cc\	.	.	.	.	.	.	.	.	4cc'\
!LO:LB:g=original	!	!	!	!	!	!	!	!	!	!	!	!	!	!	!
=48	=48	=48	=48	=48	=48	=48	=48	=48	=48	=48	=48	=48	=48	=48	=48
!	!	!	!	!	!	!	!	!	!	!	!	!	!	!	!LO:TX:t=P:problem:trillo z linią
!	!	!	!	!	!	!	!	!	!	!	!	!	!	!	!LO:TX:a:B:t=t
4G\	.	1r	.	4f/	.	4bn\	.	1r	.	1r	.	1r	.	1r	1dd
4G\	.	.	.	4f/	.	4b\	.	.	.	.	.	.	.	.	.
4G\	.	.	.	4f/	.	4b\	.	.	.	.	.	.	.	.	.
4G\	.	.	.	4f/	.	4b\	.	.	.	.	.	.	.	.	.
=49	=49	=49	=49	=49	=49	=49	=49	=49	=49	=49	=49	=49	=49	=49	=49
!	!	!	!	!	!	!LO:TX:a:t=SIC&colon;s=4bn	!	!	!	!	!	!	!	!	!
4GG/	.	1r	.	4f/	.	4b-\	.	1r	.	1r	.	1r	.	1r	1dd
!	!	!	!	!	!	!LO:TX:a:t=SIC&colon;s=4bn	!	!	!	!	!	!	!	!	!
4GG/	.	.	.	4f/	.	4b-\	.	.	.	.	.	.	.	.	.
!	!	!	!	!	!	!LO:TX:a:t=SIC&colon;s=4bn	!	!	!	!	!	!	!	!	!
4GG/	.	.	.	4f/	.	4b-\	.	.	.	.	.	.	.	.	.
!	!	!	!	!	!	!LO:TX:a:t=SIC&colon;s=4bn	!	!	!	!	!	!	!	!	!
4GG/	.	.	.	4f/	.	4b-\	.	.	.	.	.	.	.	.	.
!	!	!	!	!LO:LB:g=original	!	!	!	!	!	!	!	!	!	!	!
.	.	.	.	.	.	.	.	.	.	.	.	.	.	.	16qqcc/LL
.	.	.	.	.	.	.	.	.	.	.	.	.	.	.	16qqdd/JJ
=50	=50	=50	=50	=50	=50	=50	=50	=50	=50	=50	=50	=50	=50	=50	=50
!	!	!	!	!	!LO:DY:b:t=for	!	!LO:DY:b:t=for	!	!	!	!	!	!	!	!
4C/	.	1r	.	8e/L	f	8cc\L	f	1r	.	1r	.	1r	.	1r	4cc\
.	.	.	.	8g/	.	8gg\	.	.	.	.	.	.	.	.	.
4r	.	.	.	8g/	.	8gg\	.	.	.	.	.	.	.	.	4r
.	.	.	.	8g/J	.	8gg\J	.	.	.	.	.	.	.	.	.
*	*	*	*	*tremolo	*	*	*	*	*	*	*	*	*	*	*
*	*	*	*	*	*	*tremolo	*	*	*	*	*	*	*	*	*
2r	.	.	.	8g/L	.	8gg\L	.	.	.	.	.	.	.	.	2r
.	.	.	.	8g/	.	8gg\	.	.	.	.	.	.	.	.	.
.	.	.	.	8g/	.	8gg\	.	.	.	.	.	.	.	.	.
.	.	.	.	8g/J	.	8gg\J	.	.	.	.	.	.	.	.	.
=51	=51	=51	=51	=51	=51	=51	=51	=51	=51	=51	=51	=51	=51	=51	=51
!	!LO:DY:b:t=for	!	!LO:DY:b:t=for	!	!	!	!	!	!	!	!	!	!	!	!
4f\	f	4dd\	f	8g/L	.	8gg\L	.	4g\	.	4g\	.	4f\	.	4dd\	4ff\
.	.	.	.	8g/	.	8gg\	.	.	.	.	.	.	.	.	.
4r	.	4r	.	8g/	.	8gg\	.	4r	.	4r	.	4r	.	4r	4r
.	.	.	.	8g/J	.	8gg\J	.	.	.	.	.	.	.	.	.
!	!	!LO:TX:a:t=SIC&colon;s=4bn	!	!	!	!	!	!	!	!	!	!	!	!	!
4d\	.	4b-\	.	8g/L	.	8gg\L	.	4g\	.	4g\	.	4d\	.	4bn\	4dd\
.	.	.	.	8g/	.	8gg\	.	.	.	.	.	.	.	.	.
4r	.	4r	.	8g/	.	8gg\	.	4r	.	4r	.	4r	.	4r	4r
!	!	!	!	!	!	!	!	!	!	!	!	!	!	!LO:LB:g=original	!LO:LB:g=original
.	.	.	.	8g/J	.	8gg\J	.	.	.	.	.	.	.	.	.
=52	=52	=52	=52	=52	=52	=52	=52	=52	=52	=52	=52	=52	=52	=52	=52
4e\	.	4cc\	.	8g/L	.	8gg\L	.	4c/	.	4g\	.	4e\	.	4cc\	4ee\
.	.	.	.	8g/	.	8gg\	.	.	.	.	.	.	.	.	.
4r	.	4r	.	8g/	.	8gg\	.	4r	.	4r	.	4r	.	4r	4r
.	.	.	.	8g/J	.	8gg\J	.	.	.	.	.	.	.	.	.
4r	.	4r	.	8g/L	.	8gg\L	.	4r	.	4r	.	4r	.	4r	4r
.	.	.	.	8g/	.	8gg\	.	.	.	.	.	.	.	.	.
4c\	.	4e\	.	8g/	.	8gg\	.	4c/	.	4g\	.	4c\	.	4e/	4cc\
!	!	!	!	!	!	!	!	!LO:LB:g=original	!	!	!	!	!	!	!
.	.	.	.	8g/J	.	8gg\J	.	.	.	.	.	.	.	.	.
=53	=53	=53	=53	=53	=53	=53	=53	=53	=53	=53	=53	=53	=53	=53	=53
4d\	.	4f\	.	8g/L	.	8gg\L	.	4g\	.	4g\	.	4d\	.	4f/	4dd\
.	.	.	.	8g/	.	8gg\	.	.	.	.	.	.	.	.	.
4r	.	4r	.	8g/	.	8gg\	.	4r	.	4r	.	4r	.	4r	4r
.	.	.	.	8g/J	.	8gg\J	.	.	.	.	.	.	.	.	.
4Bn\	.	4d\	.	8g/L	.	8gg\L	.	4g\	.	4g\	.	4Bn\	.	4d/	4bn\
.	.	.	.	8g/	.	8gg\	.	.	.	.	.	.	.	.	.
4r	.	4r	.	8g/	.	8gg\	.	4r	.	4r	.	4r	.	4r	4r
!	!	!	!	!	!	!	!	!	!	!LO:LB:g=original	!	!LO:LB:g=original	!	!	!
.	.	.	.	8g/J	.	8gg\J	.	.	.	.	.	.	.	.	.
=54	=54	=54	=54	=54	=54	=54	=54	=54	=54	=54	=54	=54	=54	=54	=54
4c\	.	4e\	.	8g/L	.	8gg\L	.	4c/	.	4g\	.	4c\	.	4e/	4cc\
.	.	.	.	8g/	.	8gg\	.	.	.	.	.	.	.	.	.
4r	.	4r	.	8g/	.	8gg\	.	4r	.	4r	.	4r	.	4r	4r
.	.	.	.	8g/J	.	8gg\J	.	.	.	.	.	.	.	.	.
4r	.	4r	.	8g/L	.	8gg\L	.	4r	.	4r	.	4r	.	4r	4r
.	.	.	.	8g/	.	8gg\	.	.	.	.	.	.	.	.	.
4g\	.	4ee\	.	8g/	.	8gg\	.	4c/	.	4g\	.	4g\	.	4ee\	4gg\
.	.	.	.	8g/J	.	8gg\J	.	.	.	.	.	.	.	.	.
=55	=55	=55	=55	=55	=55	=55	=55	=55	=55	=55	=55	=55	=55	=55	=55
4f\	.	4dd\	.	8g/L	.	8gg\L	.	4g\	.	4g\	.	4f\	.	4dd\	4ff\
.	.	.	.	8g/	.	8gg\	.	.	.	.	.	.	.	.	.
4r	.	4r	.	8g/	.	8gg\	.	4r	.	4r	.	4r	.	4r	4r
.	.	.	.	8g/J	.	8gg\J	.	.	.	.	.	.	.	.	.
!	!	!LO:TX:a:t=SIC&colon;s=4bn	!	!	!	!	!	!	!	!	!	!	!	!	!
4d\	.	4b-\	.	8g/L	.	8gg\L	.	4g\	.	4g\	.	4d\	.	4bn\	4dd\
.	.	.	.	8g/	.	8gg\	.	.	.	.	.	.	.	.	.
4r	.	4r	.	8g/	.	8gg\	.	4r	.	4r	.	4r	.	4r	4r
!LO:LB:g=original	!	!	!	!	!	!	!	!	!	!	!	!	!	!	!
.	.	.	.	8g/J	.	8gg\J	.	.	.	.	.	.	.	.	.
=56	=56	=56	=56	=56	=56	=56	=56	=56	=56	=56	=56	=56	=56	=56	=56
4e\	.	4cc\	.	8g/L	.	8gg\L	.	4c/	.	4g\	.	4e\	.	4cc\	4ee\
.	.	.	.	8g/	.	8gg\	.	.	.	.	.	.	.	.	.
4r	.	4r	.	8g/	.	8gg\	.	4r	.	4r	.	4r	.	4r	4r
.	.	.	.	8g/J	.	8gg\J	.	.	.	.	.	.	.	.	.
4r	.	4r	.	8g/L	.	8gg\L	.	4r	.	4r	.	4r	.	4r	4r
.	.	.	.	8g/	.	8gg\	.	.	.	.	.	.	.	.	.
4c\	.	4e\	.	8g/	.	8gg\	.	4c/	.	4g\	.	4c\	.	4e/	4cc\
!	!	!LO:LB:g=original	!	!	!	!	!	!	!	!	!	!	!	!	!
.	.	.	.	8g/J	.	8gg\J	.	.	.	.	.	.	.	.	.
=57	=57	=57	=57	=57	=57	=57	=57	=57	=57	=57	=57	=57	=57	=57	=57
4d\	.	4f\	.	8g/L	.	8gg\L	.	4g\	.	4g\	.	4d\	.	4f/	4dd\
.	.	.	.	8g/	.	8gg\	.	.	.	.	.	.	.	.	.
4r	.	4r	.	8g/	.	8gg\	.	4r	.	4r	.	4r	.	4r	4r
.	.	.	.	8g/J	.	8gg\J	.	.	.	.	.	.	.	.	.
4Bn\	.	4d\	.	8g/L	.	8gg\L	.	4g\	.	4g\	.	4Bn\	.	4d/	4bn\
.	.	.	.	8g/	.	8gg\	.	.	.	.	.	.	.	.	.
4r	.	4r	.	8g/	.	8gg\	.	4r	.	4r	.	4r	.	4r	4r
.	.	.	.	8g/J	.	8gg\J	.	.	.	.	.	.	.	.	.
!	!	!	!	!LO:LB:g=original	!	!LO:LB:g=original	!	!	!	!	!	!	!	!	!
=58	=58	=58	=58	=58	=58	=58	=58	=58	=58	=58	=58	=58	=58	=58	=58
8c'\L	.	8e'\L	.	16ee\LL	.	16ccc\LL	.	[1c	.	[1g	.	8c'\L	.	2e/	2cc\
.	.	.	.	16ee\	.	16ccc\	.	.	.	.	.	.	.	.	.
8Bn'\	.	8bn'\	.	16ee\	.	16ccc\	.	.	.	.	.	8Bn'\	.	.	.
.	.	.	.	16ee\	.	16ccc\	.	.	.	.	.	.	.	.	.
8c'\	.	8cc'\	.	16ee\	.	16ccc\	.	.	.	.	.	8c'\	.	.	.
.	.	.	.	16ee\	.	16ccc\	.	.	.	.	.	.	.	.	.
8B'\J	.	8b'\J	.	16ee\	.	16ccc\	.	.	.	.	.	8B'\J	.	.	.
.	.	.	.	16ee\JJ	.	16ccc\JJ	.	.	.	.	.	.	.	.	.
8A'\L	.	8a'\L	.	16ee\LL	.	16ccc\LL	.	.	.	.	.	8A'\L	.	2ee\	[2ccc\
.	.	.	.	16ee\	.	16ccc\	.	.	.	.	.	.	.	.	.
8G'\	.	8g'\	.	16ee\	.	16ccc\	.	.	.	.	.	8G'\	.	.	.
.	.	.	.	16ee\	.	16ccc\	.	.	.	.	.	.	.	.	.
8A'\	.	8a'\	.	16ee\	.	16ccc\	.	.	.	.	.	8A'\	.	.	.
.	.	.	.	16ee\	.	16ccc\	.	.	.	.	.	.	.	.	.
8G'\J	.	8g'\J	.	16ee\	.	16ccc\	.	.	.	.	.	8G'\J	.	.	.
.	.	.	.	16ee\JJ	.	16ccc\JJ	.	.	.	.	.	.	.	.	.
=59	=59	=59	=59	=59	=59	=59	=59	=59	=59	=59	=59	=59	=59	=59	=59
8F'\L	.	8f'\L	.	16dd\LL	.	16ccc\LL	.	2c/]	.	1g_	.	8F'\L	.	1dd	2ccc\]
.	.	.	.	16dd\	.	16ccc\	.	.	.	.	.	.	.	.	.
8E'\J	.	8e'\J	.	16dd\	.	16ccc\	.	.	.	.	.	8E'\J	.	.	.
.	.	.	.	16dd\	.	16ccc\	.	.	.	.	.	.	.	.	.
8D'\L	.	8d'\L	.	16dd\	.	16ccc\	.	.	.	.	.	8D'\L	.	.	.
.	.	.	.	16dd\	.	16ccc\	.	.	.	.	.	.	.	.	.
16E'\L	.	16e'\L	.	16dd\	.	16ccc\	.	.	.	.	.	16E'\L	.	.	.
16F'\JJ	.	16f'\JJ	.	16dd\JJ	.	16ccc\JJ	.	.	.	.	.	16F'\JJ	.	.	.
!	!	!LO:TX:a:t=|	!	!	!	!	!	!	!	!	!	!	!	!	!
8G'\L	.	8g\L	.	16dd\LL	.	16bbn\LL	.	2g\	.	.	.	8G\L	.	.	2bbn\
.	.	.	.	16dd\	.	16bbn\	.	.	.	.	.	.	.	.	.
!	!	!LO:TX:a:t=|	!	!	!	!	!	!	!	!	!	!	!	!	!
8F#X'\	.	8f#X\	.	16dd\	.	16bbn\	.	.	.	.	.	8F#X\	.	.	.
.	.	.	.	16dd\	.	16bbn\	.	.	.	.	.	.	.	.	.
!	!	!LO:TX:a:t=|	!	!	!	!	!	!	!	!	!	!	!	!	!
8G'\	.	8g\	.	16dd\	.	16bbn\	.	.	.	.	.	8G\	.	.	.
.	.	.	.	16dd\	.	16bbn\	.	.	.	.	.	.	.	.	.
!	!	!LO:TX:a:t=|	!	!	!	!	!	!	!	!	!	!	!	!	!
8GG'/J	.	8G/J	.	16dd\	.	16bbn\	.	.	.	.	.	8GG/J	.	.	.
.	.	.	.	16dd\JJ	.	16bbn\JJ	.	.	.	.	.	.	.	.	.
=60	=60	=60	=60	=60	=60	=60	=60	=60	=60	=60	=60	=60	=60	=60	=60
8C/L	.	8c/L	.	16ee\LL	.	16ccc\LL	.	[1c	.	1g_	.	8C/L	.	1ee	[1ccc
!	!	!	!	!	!	!	!	!LO:LB:g=original	!	!	!	!	!	!LO:LB:g=original	!
.	.	.	.	16ee\	.	16ccc\	.	.	.	.	.	.	.	.	.
(16c\L	.	(16cc\L	.	16ee\	.	16ccc\	.	.	.	.	.	(16c\L	.	.	.
16Bn\JJ)	.	16bn\JJ)	.	16ee\	.	16ccc\	.	.	.	.	.	16B-X\JJ)	.	.	.
8c'\L	.	8cc'\L	.	16ee\	.	16ccc\	.	.	.	.	.	8c'\L	.	.	.
.	.	.	.	16ee\	.	16ccc\	.	.	.	.	.	.	.	.	.
8B'\J	.	8b'\J	.	16ee\	.	16ccc\	.	.	.	.	.	8B'ny\J	.	.	.
!	!	!	!	!	!	!	!	!	!	!	!	!LO:LB:g=original	!	!	!
.	.	.	.	16ee\JJ	.	16ccc\JJ	.	.	.	.	.	.	.	.	.
8A'\L	.	8a'\L	.	16ee\LL	.	16ccc\LL	.	.	.	.	.	8A'\L	.	.	.
.	.	.	.	16ee\	.	16ccc\	.	.	.	.	.	.	.	.	.
8G'\	.	8g'\	.	16ee\	.	16ccc\	.	.	.	.	.	8G'\	.	.	.
.	.	.	.	16ee\	.	16ccc\	.	.	.	.	.	.	.	.	.
8A'\	.	8a'\	.	16ee\	.	16ccc\	.	.	.	.	.	8A'\	.	.	.
.	.	.	.	16ee\	.	16ccc\	.	.	.	.	.	.	.	.	.
8G'\J	.	8g'\J	.	16ee\	.	16ccc\	.	.	.	.	.	8G'\J	.	.	.
!LO:LB:g=original	!	!	!	!	!	!	!	!	!	!	!	!	!	!	!
.	.	.	.	16ee\JJ	.	16ccc\JJ	.	.	.	.	.	.	.	.	.
=61	=61	=61	=61	=61	=61	=61	=61	=61	=61	=61	=61	=61	=61	=61	=61
8F'\L	.	8f'\L	.	16dd\LL	.	16ccc\LL	.	2c/]	.	1g_	.	8F'\L	.	1dd	2ccc\]
.	.	.	.	16dd\	.	16ccc\	.	.	.	.	.	.	.	.	.
8E'\J	.	8e'\J	.	16dd\	.	16ccc\	.	.	.	.	.	8E'\J	.	.	.
.	.	.	.	16dd\	.	16ccc\	.	.	.	.	.	.	.	.	.
8D'\L	.	8d'\L	.	16dd\	.	16ccc\	.	.	.	.	.	8D'\L	.	.	.
.	.	.	.	16dd\	.	16ccc\	.	.	.	.	.	.	.	.	.
16E'\L	.	16e'\L	.	16dd\	.	16ccc\	.	.	.	.	.	16E'\L	.	.	.
16F'\JJ	.	16f'\JJ	.	16dd\JJ	.	16ccc\JJ	.	.	.	.	.	16F'\JJ	.	.	.
!	!	!LO:LB:g=original	!	!	!	!	!	!	!	!	!	!	!	!	!
!	!	!LO:TX:a:t=|	!	!	!	!	!	!	!	!	!	!	!	!	!
8G'\L	.	8g\L	.	16dd\LL	.	16bbn\LL	.	2g\	.	.	.	8G\L	.	.	2bbn\
.	.	.	.	16dd\	.	16bbn\	.	.	.	.	.	.	.	.	.
!	!	!LO:TX:a:t=|	!	!	!	!	!	!	!	!	!	!	!	!	!
8F#X'\	.	8f#X\	.	16dd\	.	16bbn\	.	.	.	.	.	8F#X\	.	.	.
.	.	.	.	16dd\	.	16bbn\	.	.	.	.	.	.	.	.	.
!	!	!LO:TX:a:t=|	!	!	!	!	!	!	!	!	!	!	!	!	!
8G'\	.	8g\	.	16dd\	.	16bbn\	.	.	.	.	.	8G\	.	.	.
.	.	.	.	16dd\	.	16bbn\	.	.	.	.	.	.	.	.	.
!	!	!LO:TX:a:t=|	!	!	!	!	!	!	!	!	!	!	!	!	!
8GG'/J	.	8G/J	.	16dd\	.	16bbn\	.	.	.	.	.	8GG/J	.	.	.
.	.	.	.	16dd\JJ	.	16bbn\JJ	.	.	.	.	.	.	.	.	.
=62	=62	=62	=62	=62	=62	=62	=62	=62	=62	=62	=62	=62	=62	=62	=62
4C/	.	4c\	.	4ee\	.	4ccc\	.	4c/	.	4g\]	.	4C/	.	4ee\	4ccc\
4r	.	4r	.	4r	.	4r	.	4r	.	4r	.	4r	.	4r	4r
2r	.	2r	.	4r	.	4r	.	2r	.	2r	.	2r	.	2r	2r
!	!	!	!	!	!LO:DY:b:t=pianiſsimo	!	!	!	!	!	!	!	!	!	!LO:LB:g=original
.	.	.	.	4c/	pp	4cc\	.	.	.	.	.	.	.	.	.
=63	=63	=63	=63	=63	=63	=63	=63	=63	=63	=63	=63	=63	=63	=63	=63
!	!	!	!	!	!	!	!LO:DY:b:t=pianiſsimo	!	!	!	!	!	!	!	!
1r	.	1r	.	(4d/	.	(4dd\	pp	1r	.	1r	.	1r	.	1r	1r
.	.	.	.	4c/)	.	4cc\)	.	.	.	.	.	.	.	.	.
.	.	.	.	(4d/	.	(4dd\	.	.	.	.	.	.	.	.	.
.	.	.	.	4e/)	.	4ee\)	.	.	.	.	.	.	.	.	.
=64	=64	=64	=64	=64	=64	=64	=64	=64	=64	=64	=64	=64	=64	=64	=64
!	!LO:DY:b:t=pianiſsimo	!	!LO:DY:b:t=pianiſsimo	!	!	!	!	!	!	!	!	!	!	!	!
1F	pp	1A	pp	2.f/	.	2.ff\	.	1r	.	1r	.	1r	.	1r	1r
.	.	.	.	(8g/L	.	(8gg\L	.	.	.	.	.	.	.	.	.
.	.	.	.	8a/J)	.	8aa\J)	.	.	.	.	.	.	.	.	.
=65	=65	=65	=65	=65	=65	=65	=65	=65	=65	=65	=65	=65	=65	=65	=65
1C	.	1C 1G	.	(4b-/	.	(4bb-\	.	1r	.	1r	.	1r	.	1r	1r
.	.	.	.	4g/)	.	4gg\)	.	.	.	.	.	.	.	.	.
.	.	.	.	(4f/	.	(4ff\	.	.	.	.	.	.	.	.	.
.	.	.	.	4e/)	.	4ee\)	.	.	.	.	.	.	.	.	.
=66:|!|:	=66:|!|:	=66:|!|:	=66:|!|:	=66:|!|:	=66:|!|:	=66:|!|:	=66:|!|:	=66:|!|:	=66:|!|:	=66:|!|:	=66:|!|:	=66:|!|:	=66:|!|:	=66:|!|:	=66:|!|:
!	!	!	!LO:DY:b:t=for	!	!	!LO:TX:a:t=|	!LO:DY:b:t=for	!	!	!	!	!	!	!	!
4r	.	2.d\	f	4r	.	2.ff\	f	1r	.	1r	.	4r	.	1r	1r
!LO:TX:a:t=|	!LO:DY:b:t=for	!	!	!	!LO:DY:b:t=for	!	!	!	!	!	!	!	!LO:DY:b:t=for	!	!
4F\	f	.	.	4A'/	f	.	.	.	.	.	.	4F'\	f	.	.
!LO:TX:a:t=|	!	!	!	!	!	!	!	!	!	!	!	!	!	!	!
4G\	.	.	.	4B-X'/	.	.	.	.	.	.	.	4G'\	.	.	.
!LO:TX:a:t=|	!	!	!	!	!	!LO:TX:a:t=|	!	!	!	!	!	!	!	!	!
4A\	.	4c\	.	4c'/	.	4ee-X\	.	.	.	.	.	4A'\	.	.	.
!	!	!	!	!LO:LB:g=original	!	!LO:LB:g=original	!	!	!	!	!	!	!	!	!
=67	=67	=67	=67	=67	=67	=67	=67	=67	=67	=67	=67	=67	=67	=67	=67
!	!	!	!	!	!	!LO:TX:a:t=|	!	!	!	!	!	!	!	!	!
4B-'\	.	4B-\	.	4d'/	.	4dd\	.	1r	.	1r	.	4B-'\	.	1r	1r
!	!	!	!	!	!	!LO:TX:a:t=|	!	!	!	!	!	!	!	!	!
4c'\	.	4c\	.	4e-X'/	.	4cc\	.	.	.	.	.	4c'\	.	.	.
2d'\	.	4d\	.	4f'/	.	2b-X'\	.	.	.	.	.	2d'\	.	.	.
.	.	4B-\	.	4d'/	.	.	.	.	.	.	.	.	.	.	.
=68	=68	=68	=68	=68	=68	=68	=68	=68	=68	=68	=68	=68	=68	=68	=68
4r	.	2.en\	.	4r	.	2.gg'\	.	1r	.	1r	.	4r	.	1r	1r
4G'\	.	.	.	4Bn'/	.	.	.	.	.	.	.	4G'\	.	.	.
4A'\	.	.	.	4c'/	.	.	.	.	.	.	.	4A'\	.	.	.
4Bn'\	.	4d\	.	4d'/	.	4ff'\	.	.	.	.	.	4Bn'\	.	.	.
!LO:LB:g=original	!	!	!	!	!	!	!	!	!	!	!	!	!	!	!
=69	=69	=69	=69	=69	=69	=69	=69	=69	=69	=69	=69	=69	=69	=69	=69
!	!	!LO:TX:a:t=|	!	!	!	!	!	!	!	!	!	!	!	!	!
4c'\	.	4c\	.	4en'/	.	4een'\	.	1r	.	1r	.	4c'\	.	1r	1r
!	!	!LO:TX:a:t=|	!	!	!	!	!	!	!	!	!	!	!	!	!
4d'\	.	4d\	.	4f'/	.	4dd'\	.	.	.	.	.	4d'\	.	.	.
!	!	!LO:TX:a:t=|	!	!	!	!LO:TX:a:t=|	!	!	!	!	!	!	!	!	!
2e'\	.	4en\	.	4g'/	.	2cc\	.	.	.	.	.	2e'\	.	.	.
!	!	!LO:TX:a:t=|	!	!	!	!	!	!	!	!	!	!LO:LB:g=original	!	!	!
.	.	4c\	.	4e'/	.	.	.	.	.	.	.	.	.	.	.
!	!	!LO:LB:g=original	!	!	!	!	!	!	!	!	!	!	!	!	!
=70	=70	=70	=70	=70	=70	=70	=70	=70	=70	=70	=70	=70	=70	=70	=70
4r	.	2.f'\	.	4r	.	2.aa\	.	1r	.	1r	.	4r	.	1r	1r
4A'\	.	.	.	4c'/	.	.	.	.	.	.	.	4A'\	.	.	.
4B-X'\	.	.	.	4d'/	.	.	.	.	.	.	.	4B-X'\	.	.	.
4c'\	.	4e'\	.	4e'/	.	4gg\	.	.	.	.	.	4c'\	.	.	.
=71	=71	=71	=71	=71	=71	=71	=71	=71	=71	=71	=71	=71	=71	=71	=71
4d'\	.	4d'\	.	4f'/	.	4ff'\	.	1r	.	1r	.	4d'\	.	1r	1r
4e'\	.	4e'\	.	4g'/	.	4ee'\	.	.	.	.	.	4e'\	.	.	.
2f'\	.	4f'\	.	4a'/	.	2dd\	.	.	.	.	.	2f'\	.	.	.
.	.	4d'\	.	4f'/	.	.	.	.	.	.	.	.	.	.	.
=72	=72	=72	=72	=72	=72	=72	=72	=72	=72	=72	=72	=72	=72	=72	=72
4r	.	2.g'\	.	4r	.	2.bb-\	.	1r	.	1r	.	4r	.	1r	1r
4B-X'\	.	.	.	4d'/	.	.	.	.	.	.	.	4B-X'\	.	.	.
4c'\	.	.	.	4e'/	.	.	.	.	.	.	.	4c'\	.	.	.
4d'\	.	4f'\	.	4f'/	.	4aa\	.	.	.	.	.	4d'\	.	.	.
=73	=73	=73	=73	=73	=73	=73	=73	=73	=73	=73	=73	=73	=73	=73	=73
4e'\	.	4e'\	.	4g'/	.	4gg'\	.	1r	.	1r	.	4e'\	.	1r	1r
4f'\	.	4f'\	.	4a'/	.	4ff'\	.	.	.	.	.	4f'\	.	.	.
2g'\	.	4g'\	.	4b-X'/	.	2ee'\	.	.	.	.	.	2g'\	.	.	.
.	.	4e'\	.	4g'/	.	.	.	.	.	.	.	.	.	.	.
=74	=74	=74	=74	=74	=74	=74	=74	=74	=74	=74	=74	=74	=74	=74	=74
4r	.	2.a\	.	4r	.	2.ccc\	.	1r	.	1r	.	4r	.	1r	1r
!	!	!	!	!	!	!	!	!	!	!LO:LB:g=original	!	!	!	!	!
4c'\	.	.	.	4e'/	.	.	.	.	.	.	.	4c'\	.	.	.
4d'\	.	.	.	4f'/	.	.	.	.	.	.	.	4d'\	.	.	.
4e'\	.	4g\	.	4g'/	.	4bb-\	.	.	.	.	.	4e'\	.	.	.
=75	=75	=75	=75	=75	=75	=75	=75	=75	=75	=75	=75	=75	=75	=75	=75
4f'\	.	4f\	.	4a'/	.	4aa'\	.	4a\	.	4cc\	.	4f\	.	4r	4r
4r	.	4r	.	4aa'\	.	4ccc'\	.	4r	.	4r	.	4r	.	4aa\	4ccc\
4A'\	.	4A/	.	4r	.	4r	.	4f\	.	4a\	.	4A\	.	4r	4r
4r	.	4r	.	4ff\	.	4aa'\	.	4r	.	4r	.	4r	.	4ff\	4aa\
!LO:LB:g=original	!	!	!	!LO:LB:g=original	!	!LO:LB:g=original	!	!	!	!	!	!	!	!	!
=76	=76	=76	=76	=76	=76	=76	=76	=76	=76	=76	=76	=76	=76	=76	=76
4B-\	.	4B-/	.	4r	.	4r	.	4g\	.	4b-\	.	4B-\	.	4r	4r
4r	.	4r	.	4gg\	.	4bb-\	.	4r	.	4r	.	4r	.	4gg\	4bb-X\
4c\	.	4c/	.	4r	.	4r	.	4c/	.	4g\	.	4c\	.	4r	4r
4r	.	4r	.	4ee\	.	4gg\	.	4r	.	4r	.	4r	.	4ee\	4gg\
=77	=77	=77	=77	=77	=77	=77	=77	=77	=77	=77	=77	=77	=77	=77	=77
!LO:TX:a:t=|	!	!	!	!LO:TX:a:t=|	!	!	!	!	!LO:DY:b:t=for	!	!	!	!	!	!
2F\	.	2f\	.	2ff\	.	2ff\	.	2f\	f	2f\	.	2F|\	.	2ff'\	2ff\
!LO:TX:a:t=|	!	!	!	!LO:TX:a:t=|	!	!	!	!	!	!	!	!	!	!	!
4.C/	.	4.c'/	.	4.cc\	.	4.cc\	.	4.c|/	.	4.cc'\	.	4.C|/	.	4.cc|\	4.cc|\
!LO:TX:a:t=|	!	!	!	!LO:TX:a:t=|	!	!	!	!	!	!	!	!	!	!	!
8AA/	.	8A'/	.	8a\	.	8a\	.	8A|/	.	8a'\	.	8AA|/	.	8a|\	8a|\
!	!	!	!	!	!	!	!	!	!	!	!	!LO:LB:g=original	!	!	!
=78	=78	=78	=78	=78	=78	=78	=78	=78	=78	=78	=78	=78	=78	=78	=78
!	!	!	!LO:DY:b:t=pia	!	!	!	!	!	!LO:DY:b:t=pia	!	!	!	!	!	!
2FF/	.	4F/	p	2f/	.	2f/	.	[1F	p	[1f	p	2FF/	.	2f/	2f/
.	.	4F/	.	.	.	.	.	.	.	.	.	.	.	.	.
2r	.	4F/	.	4r	.	4r	.	.	.	.	.	2r	.	4r	4r
!	!	!	!	!	!	!	!LO:DY:b:t=piano	!	!	!	!	!	!	!	!
.	.	4F/	.	4c/	.	4a/	p	.	.	.	.	.	.	4cc\	4aa\
!	!	!LO:LB:g=original	!	!	!	!	!	!	!	!	!	!	!	!LO:LB:g=original	!
=79	=79	=79	=79	=79	=79	=79	=79	=79	=79	=79	=79	=79	=79	=79	=79
!	!	!	!	!	!LO:DY:b:t=pia:	!	!	!	!	!	!	!	!	!	!
1r	.	4F/	.	(4B-/	p	(4g/	.	1F_	.	1f_	.	1r	.	(4b-\	(4gg\
.	.	4F/	.	4A/)	.	4f/)	.	.	.	.	.	.	.	4a\)	4ff\)
.	.	4F/	.	(4B-/	.	(4g/	.	.	.	.	.	.	.	(4b-\	(4gg\
.	.	4F/	.	4c/)	.	4a/)	.	.	.	.	.	.	.	4cc\)	4aa\)
=80	=80	=80	=80	=80	=80	=80	=80	=80	=80	=80	=80	=80	=80	=80	=80
4r	.	4F/	.	(8B-/L	.	(8g/L	.	1F_	.	1f_	.	4r	.	(8b-\L	(8gg\L
!	!	!	!	!	!	!	!	!LO:LB:g=original	!	!	!	!	!	!	!
.	.	.	.	8A/J)	.	8f/J)	.	.	.	.	.	.	.	8a\J)	8ff\J)
!	!LO:DY:b:t=for	!	!	!	!	!	!	!	!	!	!	!	!	!	!
4F\	f	4f\	.	4A/	.	4f/	.	.	.	.	.	4F\	.	4a\	4ff\
!	!	!	!LO:DY:b:t=for	!	!	!	!	!	!	!	!	!	!	!	!
2FF/	.	4F/	f	4r	.	4r	.	.	.	.	.	2FF/	.	4r	4r
.	.	4F/	.	4c/	.	4a/	.	.	.	.	.	.	.	4cc\	4aa\
=81	=81	=81	=81	=81	=81	=81	=81	=81	=81	=81	=81	=81	=81	=81	=81
!	!	!	!LO:DY:b:t=pia	!	!	!	!	!	!	!	!	!	!	!	!
1r	.	4F/	p	(4B-/	.	(4g/	.	1F_	.	1f_	.	1r	.	(4b-\	(4gg\
.	.	4F/	.	4A/)	.	4f/)	.	.	.	.	.	.	.	4a\)	4ff\)
.	.	4F/	.	(4B-/	.	(4g/	.	.	.	.	.	.	.	(4b-\	(4gg\
.	.	4F/	.	4c/)	.	4a/)	.	.	.	.	.	.	.	4cc\)	4aa\)
=82	=82	=82	=82	=82	=82	=82	=82	=82	=82	=82	=82	=82	=82	=82	=82
4r	.	4F/	.	(8B-/L	.	(8g/L	.	1F_	.	1f_	.	4r	.	(8b-\L	(8gg\L
.	.	.	.	8A/J)	.	8f/J)	.	.	.	.	.	.	.	8a\J)	8ff\J)
!	!LO:DY:b:t=for	!	!	!	!	!	!	!	!	!	!	!	!	!	!
4F\	f	4f\	.	4A/	.	4f/	.	.	.	.	.	4F\	.	4a\	4ff\
!	!	!	!LO:DY:b:t=for	!	!	!	!	!	!	!	!	!	!	!	!
2FF/	.	4F/	f	4r	.	4r	.	.	.	.	.	2FF/	.	2rg	2r
.	.	4F/	.	4a\	.	4cc\	.	.	.	.	.	.	.	.	.
=83	=83	=83	=83	=83	=83	=83	=83	=83	=83	=83	=83	=83	=83	=83	=83
!	!LO:DY:b:t=pia	!	!LO:DY:b:t=pia	!	!	!	!	!	!	!	!	!	!LO:DY:b:t=pia:	!	!
4F\	p	4F/	p	2b-\	.	2dd\	.	1F]	.	1f_	.	4F\	p	1r	1r
4F\	.	4F/	.	.	.	.	.	.	.	.	.	4F\	.	.	.
4F\	.	4F/	.	(4.dd\	.	(4.ff\	.	.	.	.	.	4F\	.	.	.
4F\	.	4F/	.	.	.	.	.	.	.	.	.	4F\	.	.	.
.	.	.	.	16cc\LL	.	16ee\LL	.	.	.	.	.	.	.	.	.
.	.	.	.	16b-\JJ)	.	16dd\JJ)	.	.	.	.	.	.	.	.	.
!	!	!	!	!LO:LB:g=original	!	!LO:LB:g=original	!	!	!	!	!	!	!	!	!
=84	=84	=84	=84	=84	=84	=84	=84	=84	=84	=84	=84	=84	=84	=84	=84
!	!	!	!	!	!	!LO:TX:b:t=|	!	!	!	!	!	!	!	!	!
4F\	.	4F/	.	4.a'/	.	4.cc/	.	2.A/	.	2.f\]	.	4F\	.	2r	2r
4F\	.	4F/	.	.	.	.	.	.	.	.	.	4F\	.	.	.
!	!	!	!	!	!	!LO:TX:b:t=|	!	!	!	!	!	!	!	!	!
.	.	.	.	8f'/	.	8a/	.	.	.	.	.	.	.	.	.
!	!	!	!	!	!	!LO:TX:b:t=|	!	!	!	!	!	!	!	!	!
4F\	.	4F/	.	4A'/	.	4f/	.	.	.	.	.	4F\	.	4r	4r
!	!	!	!	!	!	!LO:TX:b:t=|	!	!	!	!	!	!	!	!	!
4F\	.	4F/	.	4f'/	.	4a/	.	4f\	.	4a\	.	4F\	.	4ff\	4aa\
=85	=85	=85	=85	=85	=85	=85	=85	=85	=85	=85	=85	=85	=85	=85	=85
4C/	.	4C/	.	4e'/	.	4g'/	.	4c'/	.	4g'\	.	4C/	.	4ee'\	4gg'\
4C/	.	4C/	.	4f'/	.	4a'/	.	4f'\	.	4a'\	.	4C/	.	4ff'\	4aa'\
4C/	.	4C/	.	(8a/L	.	(8cc/L	.	(8a\L	.	(8cc\L	.	4C/	.	(8aa\L	(8ccc\L
.	.	.	.	8g/)	.	8b-/)	.	8g\	.	8b-\)	.	.	.	8gg\)	8bb-\)
4C/	.	4C/	.	(8f/	.	(8a/	.	8f\	.	(8a\	.	4C/	.	(8ff\	(8aa\
!LO:LB:g=original	!	!LO:LB:g=original	!	!	!	!	!	!	!	!	!	!	!	!	!
.	.	.	.	8e/J)	.	8g/J)	.	8c\J)	.	8g\J)	.	.	.	8ee\J)	8gg\J)
=86	=86	=86	=86	=86	=86	=86	=86	=86	=86	=86	=86	=86	=86	=86	=86
4F\	.	4F/	.	(8g/L	.	(8b-\L	.	(8g\L	.	(8b-\L	.	4F\	.	(8gg\L	(8bb-\L
.	.	.	.	8f/)	.	8a\)	.	8f\)	.	8a\)	.	.	.	8ff\)	8aa\)
4F\	.	4F/	.	(8b-/	.	(8dd\	.	(8b-\	.	(8dd\	.	4F\	.	(8bb-\	(8ddd\
.	.	.	.	8a/J)	.	8cc\J)	.	8a\J)	.	8cc\J)	.	.	.	8aa\J)	8ccc\J)
!	!	!	!	!	!	!	!	!	!	!LO:LB:g=original	!	!	!	!LO:LB:g=original	!
4F\	.	4F/	.	4a/	.	4cc\	.	4a\	.	4cc\	.	4F\	.	4aa\	4ccc\
4F\	.	4F/	.	4r	.	4r	.	4r	.	4r	.	4F\	.	4r	4r
=87	=87	=87	=87	=87	=87	=87	=87	=87	=87	=87	=87	=87	=87	=87	=87
4F\	.	4F/	.	2b-\	.	2dd\	.	1F	.	[1f	.	4F\	.	1r	1r
!	!	!	!	!	!	!	!	!LO:LB:g=original	!	!	!	!	!	!	!
4F\	.	4F/	.	.	.	.	.	.	.	.	.	4F\	.	.	.
4F\	.	4F/	.	(4.dd\	.	(4.ff\	.	.	.	.	.	4F\	.	.	.
4F\	.	4F/	.	.	.	.	.	.	.	.	.	4F\	.	.	.
.	.	.	.	16cc\LL	.	16ee\LL	.	.	.	.	.	.	.	.	.
.	.	.	.	16b-\JJ)	.	16dd\JJ)	.	.	.	.	.	.	.	.	.
=88	=88	=88	=88	=88	=88	=88	=88	=88	=88	=88	=88	=88	=88	=88	=88
!	!	!	!	!	!	!LO:TX:a:t=|	!	!	!	!	!	!	!	!	!
4F\	.	4F/	.	4.a'/	.	4.cc\	.	2.A/	.	2.f\]	.	4F\	.	2r	2r
4F\	.	4F/	.	.	.	.	.	.	.	.	.	4F\	.	.	.
!	!	!	!	!	!	!LO:TX:a:t=|	!	!	!	!	!	!	!	!	!
.	.	.	.	8f'/	.	8a\	.	.	.	.	.	.	.	.	.
4F\	.	4F/	.	4A'/	.	4f'/	.	.	.	.	.	4F\	.	4r	4r
4F\	.	4F/	.	4f'/	.	4a'/	.	4f\	.	4a\	.	4F\	.	4ff\	4aa\
!	!	!	!	!	!	!	!	!	!	!	!	!LO:LB:g=original	!	!	!
=89	=89	=89	=89	=89	=89	=89	=89	=89	=89	=89	=89	=89	=89	=89	=89
4C/	.	4C/	.	4e'/	.	4g'/	.	4c'/	.	4g\	.	4C/	.	4ee'\	4gg'\
4C/	.	4C/	.	4f'/	.	4a'/	.	4f'\	.	4a\	.	4C/	.	4ff'\	4aa'\
4C/	.	4C/	.	(8a/L	.	(8cc/L	.	(8a\L	.	(8cc\L	.	4C/	.	(8aa\L	(8ccc\L
.	.	.	.	8g/)	.	8b-/)	.	8g\)	.	8b-\)	.	.	.	8gg\)	8bb-\)
4C/	.	4C/	.	(8f/	.	(8a/	.	(8f\	.	(8a\	.	4C/	.	(8ff\	(8aa\
.	.	.	.	8e/J)	.	8g/J)	.	8c\J)	.	8g\J)	.	.	.	8ee\J)	8gg\J)
!	!	!	!	!LO:LB:g=original	!	!	!	!	!	!	!	!	!	!	!
=90	=90	=90	=90	=90	=90	=90	=90	=90	=90	=90	=90	=90	=90	=90	=90
!	!LO:DY:b:t=for	!	!LO:DY:b:t=for	!	!LO:DY:b:t=for	!	!LO:DY:b:t=for	!	!LO:DY:b:t=for	!	!	!	!LO:DY:b:t=for	!	!
4F\	f	4F/	f	8a/	f	8f/	f	[1A	f	[1f	f	4F\	f	2ff\	[1ff
.	.	.	.	4a/	.	4ff\	.	.	.	.	.	.	.	.	.
8r	.	8r	.	.	.	.	.	.	.	.	.	8r	.	.	.
24C\LL	.	24C/LL	.	4a/	.	4ff\	.	.	.	.	.	24C\LL	.	.	.
24D\	.	24D/	.	.	.	.	.	.	.	.	.	24D\	.	.	.
24E\JJ	.	24E/JJ	.	.	.	.	.	.	.	.	.	24E\JJ	.	.	.
4F'\	.	4F'/	.	.	.	.	.	.	.	.	.	4F'\	.	[2a/	.
.	.	.	.	4a/	.	4ff\	.	.	.	.	.	.	.	.	.
4A'\	.	4A'/	.	.	.	.	.	.	.	.	.	4A'\	.	.	.
.	.	.	.	[8a/	.	[8ff\	.	.	.	.	.	.	.	.	.
!	!	!	!	!	!	!LO:LB:g=original	!	!	!	!	!	!	!	!	!
=91	=91	=91	=91	=91	=91	=91	=91	=91	=91	=91	=91	=91	=91	=91	=91
4F'\	.	4F'/	.	8a/]	.	8ff\]	.	1A]	.	1f]	.	4F'\	.	1a]	1ff]
.	.	.	.	4a/	.	4ff\	.	.	.	.	.	.	.	.	.
4C'\	.	4C'/	.	.	.	.	.	.	.	.	.	4C'\	.	.	.
.	.	.	.	4a/	.	4ff\	.	.	.	.	.	.	.	.	.
4F'\	.	4F'/	.	.	.	.	.	.	.	.	.	4F'\	.	.	.
.	.	.	.	4a/	.	4ff\	.	.	.	.	.	.	.	.	.
4A'\	.	4A'/	.	.	.	.	.	.	.	.	.	4A'\	.	.	.
.	.	.	.	8a/	.	8ff\	.	.	.	.	.	.	.	.	.
=92	=92	=92	=92	=92	=92	=92	=92	=92	=92	=92	=92	=92	=92	=92	=92
4G\	.	4G/	.	8b-/	.	8gg\	.	[1c	.	[1g	.	4G\	.	[1b-	[1gg
.	.	.	.	4b-/	.	4gg\	.	.	.	.	.	.	.	.	.
8r	.	8r	.	.	.	.	.	.	.	.	.	8r	.	.	.
(32C\LLL	.	(32C/LLL	.	4b-/	.	4gg\	.	.	.	.	.	(32C\LLL	.	.	.
32D\	.	32D/	.	.	.	.	.	.	.	.	.	32D\	.	.	.
32E\	.	32E/	.	.	.	.	.	.	.	.	.	32E\	.	.	.
32F\JJJ)	.	32F/JJJ)	.	.	.	.	.	.	.	.	.	32F\JJJ)	.	.	.
!	!	!LO:LB:g=original	!	!	!	!	!	!	!	!	!	!	!	!	!
4G'\	.	4G'/	.	.	.	.	.	.	.	.	.	4G'\	.	.	.
.	.	.	.	4b-/	.	4gg\	.	.	.	.	.	.	.	.	.
4E'\	.	4E'/	.	.	.	.	.	.	.	.	.	4E'\	.	.	.
!LO:LB:g=original	!	!	!	!	!	!	!	!	!	!	!	!	!	!	!
.	.	.	.	[8b-/	.	[8gg\	.	.	.	.	.	.	.	.	.
=93	=93	=93	=93	=93	=93	=93	=93	=93	=93	=93	=93	=93	=93	=93	=93
4C'/	.	4C'/	.	8b-/]	.	8gg\]	.	1c]	.	1g]	.	4C'\	.	1b-]	1gg]
.	.	.	.	4b-/	.	4gg\	.	.	.	.	.	.	.	.	.
4G'\	.	4G'/	.	.	.	.	.	.	.	.	.	4G'\	.	.	.
.	.	.	.	4b-/	.	4gg\	.	.	.	.	.	.	.	.	.
4E'\	.	4E'/	.	.	.	.	.	.	.	.	.	4E'\	.	.	.
.	.	.	.	4b-/	.	4gg\	.	.	.	.	.	.	.	.	.
4C'/	.	4C'/	.	.	.	.	.	.	.	.	.	4C'\	.	.	.
.	.	.	.	8b-/	.	(8gg\	.	.	.	.	.	.	.	.	.
=94	=94	=94	=94	=94	=94	=94	=94	=94	=94	=94	=94	=94	=94	=94	=94
4F\	.	4F/	.	8a/	.	8ff\)	.	1A	.	[1f	.	4F\	.	1a	[1ff
.	.	.	.	4a/	.	4ff\	.	.	.	.	.	.	.	.	.
8r	.	8r	.	.	.	.	.	.	.	.	.	8r	.	.	.
24C\LL	.	24c\LL	.	4a/	.	4ff\	.	.	.	.	.	24C\LL	.	.	.
24D\	.	24d\	.	.	.	.	.	.	.	.	.	24D\	.	.	.
24E\JJ	.	24e\JJ	.	.	.	.	.	.	.	.	.	24E\JJ	.	.	.
8F'\L	.	8f'\L	.	.	.	.	.	.	.	.	.	8F'\L	.	.	.
8E'\	.	8e'\	.	4a/	.	4ff\	.	.	.	.	.	8E'\	.	.	.
8F'\	.	8f'\	.	.	.	.	.	.	.	.	.	8F'\	.	.	.
8E'\J	.	8e'\J	.	8a/	.	[8ff\	.	.	.	.	.	8E'\J	.	.	.
!	!	!	!	!	!	!	!	!	!	!	!	!LO:LB:g=original	!	!	!
=95	=95	=95	=95	=95	=95	=95	=95	=95	=95	=95	=95	=95	=95	=95	=95
4D\	.	4d\	.	8dd\	.	8ff\]	.	[1F	.	1f]	.	4D\	.	[1dd	1ff_
.	.	.	.	4dd\	.	4ff\	.	.	.	.	.	.	.	.	.
8r	.	8r	.	.	.	.	.	.	.	.	.	8r	.	.	.
24AA/LL	.	24A/LL	.	4dd\	.	4ff\	.	.	.	.	.	24AA/LL	.	.	.
24BB-/	.	24B-/	.	.	.	.	.	.	.	.	.	24BB-/	.	.	.
24C/JJ	.	24c/JJ	.	.	.	.	.	.	.	.	.	24C/JJ	.	.	.
8D'/L	.	8d'\L	.	.	.	.	.	.	.	.	.	8D'/L	.	.	.
8C'/	.	8c'\	.	4dd\	.	4ff\	.	.	.	.	.	8C'/	.	.	.
8D'/	.	8d'\	.	.	.	.	.	.	.	.	.	8D'/	.	.	.
8C'/J	.	8c'\J	.	[8dd\	.	[8ff\	.	.	.	.	.	8C'/J	.	.	.
!	!	!	!	!LO:LB:g=original	!	!	!	!	!	!	!	!	!	!	!
=96	=96	=96	=96	=96	=96	=96	=96	=96	=96	=96	=96	=96	=96	=96	=96
!	!	!	!	!	!	!	!	!	!	!LO:TX:a:t=wi	!	!	!	!	!
4BB-/	.	4B-/	.	8dd\]	.	8ff\]	.	1F]	.	1f	.	4BB-/	.	1dd]	1ff]
!	!	!	!	!	!	!	!	!LO:LB:g=original	!	!	!	!	!	!	!LO:LB:g=original
.	.	.	.	4dd\	.	4ff\	.	.	.	.	.	.	.	.	.
8r	.	8r	.	.	.	.	.	.	.	.	.	8r	.	.	.
(16GG/LL	.	16G/LL	.	4dd\	.	4ff\	.	.	.	.	.	(16GG/LL	.	.	.
16AA/JJ)	.	16A/JJ	.	.	.	.	.	.	.	.	.	16AA/JJ)	.	.	.
4BB-/	.	4B-/	.	.	.	.	.	.	.	.	.	4BB-/	.	.	.
.	.	.	.	4dd\	.	4ff\	.	.	.	.	.	.	.	.	.
8r	.	8r	.	.	.	.	.	.	.	.	.	8r	.	.	.
8BBn/	.	8Bn/	.	8dd\	.	8ff\	.	.	.	.	.	8BBn/	.	.	.
=97	=97	=97	=97	=97	=97	=97	=97	=97	=97	=97	=97	=97	=97	=97	=97
*	*	*	*	*	*	*	*	*	*	*^	*	*	*	*	*
!	!	!	!	!	!	!	!	!	!	!LO:TX:t=P:problem:w warstwie II rozpisane wide w tt. 97-126	!	!	!	!	!	!
!	!	!	!	!	!	!	!	!	!	!LO:TX:a:t=de	!	!	!	!	!	!
8.C/L	.	8.c/L	.	4cc\	.	4ee\	.	4C/	.	4c/	8.c\L	.	8.C/L	.	4cc\	4ee\
16c\Jk	.	16c/Jk	.	.	.	.	.	.	.	.	16cc\Jk	.	16c\Jk	.	.	.
8.G\L	.	8.G/L	.	8.G/L 8.e	.	8.cc\L	.	8.C/L	.	8.c\L	8.g\L	.	8.G\L	.	8.e/L	8.cc\L
16E\Jk	.	16E/Jk	.	16G/Jk 16e	.	16cc\Jk	.	16C/Jk	.	16c/Jk	16e\Jk	.	16E\Jk	.	16e/Jk	16cc\Jk
!LO:LB:g=original	!	!	!	!	!	!	!	!	!	!	!	!	!	!	!	!
4C/	.	4C/	.	4G/ 4e	.	4cc\	.	4C/	.	4c/	4c\	.	4C/	.	4e/	4cc\
4r	.	4r	.	4r	.	4r	.	4r	.	4r	4r	.	4r	.	4r	4r
!	!	!LO:LB:g=original	!	!	!	!LO:LB:g=original	!	!	!	!	!	!	!	!	!LO:LB:g=original	!
=98	=98	=98	=98	=98	=98	=98	=98	=98	=98	=98	=98	=98	=98	=98	=98	=98
!	!	!	!LO:DY:b:t=pia	!	!LO:DY:b:t=pia	!LO:TX:a:t=Solo	!LO:DY:b:t=pia:	!LO:TX:a:t=29.	!	!	!	!	!LO:TX:a:t=Solo	!	!LO:TX:a:t=29.	!
1r	.	4f\	p	4c/	p	4a/	p	1r	.	1r	1cc	.	1c	.	1r	1r
.	.	4f\	.	4c/	.	4a/	.	.	.	.	.	.	.	.	.	.
.	.	4f\	.	4c/	.	4a/	.	.	.	.	.	.	.	.	.	.
.	.	4f\	.	4c/	.	4a/	.	.	.	.	.	.	.	.	.	.
=99	=99	=99	=99	=99	=99	=99	=99	=99	=99	=99	=99	=99	=99	=99	=99	=99
1r	.	4f\	.	4c/	.	4a/	.	1r	.	1r	8bX\L	.	(8Bn\L	.	1r	1r
.	.	.	.	.	.	.	.	.	.	.	8cc\	.	8c\)	.	.	.
.	.	4f\	.	4c/	.	4a/	.	.	.	.	8dd\	.	(8d\	.	.	.
.	.	.	.	.	.	.	.	.	.	.	8cc\J	.	8c\J)	.	.	.
.	.	4f\	.	4c/	.	4a/	.	.	.	.	8b\L	.	(8B\L	.	.	.
.	.	.	.	.	.	.	.	.	.	.	8cc\	.	8c\)	.	.	.
.	.	4f\	.	4c/	.	4a/	.	.	.	.	8a\	.	(8A\	.	.	.
.	.	.	.	.	.	.	.	.	.	.	8f\J	.	8F\J)	.	.	.
=100	=100	=100	=100	=100	=100	=100	=100	=100	=100	=100	=100	=100	=100	=100	=100	=100
1r	.	4g\	.	4c/	.	4b-X\	.	1r	.	1r	4f\	.	(4F\	.	1r	1r
.	.	4g\	.	4c/	.	4b-\	.	.	.	.	4e\	.	4E\)	.	.	.
.	.	4g\	.	4c/	.	4b-\	.	.	.	.	2e\	.	[2E\	.	.	.
!	!	!	!	!	!	!	!	!	!	!	!	!	!LO:LB:g=original	!	!	!
.	.	4g\	.	4c/	.	4b-\	.	.	.	.	.	.	.	.	.	.
=101	=101	=101	=101	=101	=101	=101	=101	=101	=101	=101	=101	=101	=101	=101	=101	=101
1r	.	4g\	.	4c/	.	4b-\	.	1r	.	1r	8e\L	.	8E\L]	.	1r	1r
.	.	.	.	.	.	.	.	.	.	.	8f\	.	8F\	.	.	.
.	.	4g\	.	4c/	.	4b-\	.	.	.	.	8g\	.	8G\	.	.	.
.	.	.	.	.	.	.	.	.	.	.	8a\J	.	8A\J	.	.	.
.	.	4g\	.	4c/	.	4b-\	.	.	.	.	8b-\L	.	(8B-X\L	.	.	.
.	.	.	.	.	.	.	.	.	.	.	8g\	.	8G\)	.	.	.
.	.	4g\	.	4c/	.	4b-\	.	.	.	.	8f\	.	(8F\	.	.	.
.	.	.	.	.	.	.	.	.	.	.	8e\J	.	8E\J)	.	.	.
=102	=102	=102	=102	=102	=102	=102	=102	=102	=102	=102	=102	=102	=102	=102	=102	=102
1r	.	4f\	.	4c/	.	4a/	.	1r	.	1r	8g\L	.	(8G\L	.	1r	1r
.	.	.	.	.	.	.	.	.	.	.	8f\	.	8F\)	.	.	.
.	.	4f\	.	4c/	.	4a/	.	.	.	.	8e\	.	(8E\	.	.	.
.	.	.	.	.	.	.	.	.	.	.	8f\J	.	8F\J)	.	.	.
.	.	4f\	.	4c/	.	4a/	.	.	.	.	4c/	.	4C/	.	.	.
.	.	4f\	.	4c/	.	4a/	.	.	.	.	4r	.	4r	.	.	.
!	!	!	!	!LO:LB:g=original	!	!	!	!	!	!	!LO:LB:g=original	!	!	!	!	!
=103	=103	=103	=103	=103	=103	=103	=103	=103	=103	=103	=103	=103	=103	=103	=103	=103
!	!	!	!LO:DY:b:t=for	!	!LO:DY:b:t=for	!	!LO:DY:b:t=for	!	!	!	!	!	!	!	!	!
8r	.	(8a\L	f	(8a\L	f	(8a\L	f	1r	.	1r	8BX/L	.	1r	.	1r	8r
!	!LO:DY:b:t=for	!	!	!	!	!	!	!	!	!	!	!	!	!	!	!
(8c\L	f	8cc\)	.	8cc\)	.	8cc\)	.	.	.	.	8c/	.	.	.	.	(8cc\L
8d\	.	(8dd\	.	(8dd\	.	(8dd\	.	.	.	.	8d/	.	.	.	.	8dd\
8c\J)	.	8cc\J)	.	8cc\J)	.	8cc\J)	.	.	.	.	8c/J	.	.	.	.	8cc\J)
!	!	!	!	!	!	!	!	!	!	!	!	!	!	!	!	!LO:TX:t=P:problem:niejednoznaczny zapis łuku
(8B-X\L	.	(8b-\L	.	(8b-/L	.	(8b-/L	.	.	.	.	8B/L	.	.	.	.	(8b-/L
8A\)	.	8a\)	.	8a/)	.	8a/)	.	.	.	.	8A/	.	.	.	.	8a/
(8G\	.	(8g\	.	(8g/	.	(8g/	.	.	.	.	8G/	.	.	.	.	8g/
8F\J)	.	8f\J)	.	8f/J)	.	8f/J)	.	.	.	.	8F/J	.	.	.	.	8f/J)
=104	=104	=104	=104	=104	=104	=104	=104	=104	=104	=104	=104	=104	=104	=104	=104	=104
!	!	!	!LO:DY:b:t=pia	!	!LO:DY:b:t=pia	!	!LO:DY:b:t=pia:	!	!	!	!	!	!	!	!	!LO:TX:a:t=23.
4F\	.	4f\	p	4c/	p	4a/	p	1r	.	1r	1cc	.	1c	.	1r	1r
4r	.	4f\	.	4c/	.	4a/	.	.	.	.	.	.	.	.	.	.
2r	.	4f\	.	4c/	.	4a/	.	.	.	.	.	.	.	.	.	.
.	.	4f\	.	4c/	.	4a/	.	.	.	.	.	.	.	.	.	.
!	!	!LO:LB:g=original	!	!	!	!LO:LB:g=original	!	!	!	!	!	!	!	!	!	!
=105	=105	=105	=105	=105	=105	=105	=105	=105	=105	=105	=105	=105	=105	=105	=105	=105
1r	.	4f\	.	4c/	.	4a\	.	1r	.	1r	8bX\L	.	(8Bn\L	.	1r	1r
.	.	.	.	.	.	.	.	.	.	.	8cc\	.	8c\)	.	.	.
.	.	4f\	.	4c/	.	4a\	.	.	.	.	8dd\	.	(8d\	.	.	.
.	.	.	.	.	.	.	.	.	.	.	8cc\J	.	8c\J)	.	.	.
.	.	4f\	.	4c/	.	4a\	.	.	.	.	8b\L	.	(8B\L	.	.	.
.	.	.	.	.	.	.	.	.	.	.	8cc\	.	8c\)	.	.	.
.	.	4f\	.	4c/	.	4a\	.	.	.	.	8a\	.	(8A\	.	.	.
.	.	.	.	.	.	.	.	.	.	.	8f\J	.	8F\J)	.	.	.
=106	=106	=106	=106	=106	=106	=106	=106	=106	=106	=106	=106	=106	=106	=106	=106	=106
1r	.	4g\	.	4c/	.	4b-\	.	1r	.	1r	4f\	.	(4F\	.	1r	1r
.	.	4g\	.	4c/	.	4b-\	.	.	.	.	4e\	.	4E\)	.	.	.
.	.	4g\	.	4c/	.	4b-\	.	.	.	.	2e\	.	[2E\	.	.	.
.	.	4g\	.	4c/	.	4b-\	.	.	.	.	.	.	.	.	.	.
=107	=107	=107	=107	=107	=107	=107	=107	=107	=107	=107	=107	=107	=107	=107	=107	=107
1r	.	4g\	.	4c/	.	4b-\	.	1r	.	1r	8e\L	.	8E\L]	.	1r	1r
.	.	.	.	.	.	.	.	.	.	.	8f\	.	8F\	.	.	.
.	.	4g\	.	4c/	.	4b-\	.	.	.	.	8g\	.	8G\	.	.	.
.	.	.	.	.	.	.	.	.	.	.	8a\J	.	8A\J	.	.	.
.	.	4g\	.	4c/	.	4b-\	.	.	.	.	8b-\L	.	(8B-X\L	.	.	.
.	.	.	.	.	.	.	.	.	.	.	8g\	.	8G\	.	.	.
.	.	4g\	.	4c/	.	4b-\	.	.	.	.	8f\	.	8F\	.	.	.
.	.	.	.	.	.	.	.	.	.	.	8e\J	.	8E\J)	.	.	.
=108	=108	=108	=108	=108	=108	=108	=108	=108	=108	=108	=108	=108	=108	=108	=108	=108
!	!LO:DY:b:t=pia.	!	!	!	!	!	!	!	!	!	!	!	!	!	!	!
4F\	p	4f\	.	4f/	.	4a\	.	1r	.	1r	4f\	.	4F\	.	1r	1r
4F\	.	4r	.	4a/	.	4cc\	.	.	.	.	4cc\	.	4c\	.	.	.
!	!	!	!	!	!	!	!	!	!	!	!	!	!LO:LB:g=original	!	!	!
4F\	.	2r	.	4a/	.	4cc\	.	.	.	.	2cc\	.	[2c\	.	.	.
4F\	.	.	.	4a/	.	4cc\	.	.	.	.	.	.	.	.	.	.
=109	=109	=109	=109	=109	=109	=109	=109	=109	=109	=109	=109	=109	=109	=109	=109	=109
4F\	.	1r	.	4a/	.	4cc\	.	1r	.	1r	4cc\	.	4c\]	.	1r	1r
4F\	.	.	.	4a/	.	4cc\	.	.	.	.	8dd\L	.	(8d\L	.	.	.
.	.	.	.	.	.	.	.	.	.	.	8cc\J	.	8c\J)	.	.	.
!	!	!	!	!	!	!	!	!	!	!	!LO:LB:g=original	!	!LO:TX:t=P:problem:niejednoznaczny zapis łuku	!	!	!
4F\	.	.	.	4a/	.	4cc\	.	.	.	.	8b-\L	.	(8B-\L	.	.	.
.	.	.	.	.	.	.	.	.	.	.	8a\	.	8A\	.	.	.
4F\	.	.	.	4a/	.	4cc\	.	.	.	.	8g\	.	8G\	.	.	.
!	!	!	!	!LO:LB:g=original	!	!	!	!	!	!	!	!	!	!	!	!
.	.	.	.	.	.	.	.	.	.	.	8f\J	.	8F\J)	.	.	.
=110	=110	=110	=110	=110	=110	=110	=110	=110	=110	=110	=110	=110	=110	=110	=110	=110
4B-\	.	1r	.	4f/	.	4dd\	.	1r	.	1r	4f\	.	(4F\	.	1r	1r
4B-\	.	.	.	4f/	.	4dd\	.	.	.	.	4dd\	.	4d\)	.	.	.
4B-\	.	.	.	4f/	.	4dd\	.	.	.	.	2dd\	.	[2d\	.	.	.
4B-\	.	.	.	4f/	.	4dd\	.	.	.	.	.	.	.	.	.	.
=111	=111	=111	=111	=111	=111	=111	=111	=111	=111	=111	=111	=111	=111	=111	=111	=111
4B-\	.	1r	.	4f/	.	4dd\	.	1r	.	1r	8dd\L	.	8d\L]	.	1r	1r
.	.	.	.	.	.	.	.	.	.	.	8ee\	.	(8e\	.	.	.
4B-\	.	.	.	4f/	.	4dd\	.	.	.	.	8ff\	.	8f\	.	.	.
.	.	.	.	.	.	.	.	.	.	.	8ee\J	.	8e\J)	.	.	.
!	!	!	!	!	!	!	!	!	!	!	!	!	!LO:TX:t=P:problem:niejednoznaczny zapis łuku	!	!	!
4B-\	.	.	.	4f/	.	4dd\	.	.	.	.	8gg\L	.	(8g\L	.	.	.
.	.	.	.	.	.	.	.	.	.	.	8ff\	.	8f\	.	.	.
4B-\	.	.	.	4f/	.	4dd\	.	.	.	.	8ee\	.	8e\	.	.	.
!LO:LB:g=original	!	!	!	!	!	!LO:LB:g=original	!	!	!	!	!	!	!	!	!	!
.	.	.	.	.	.	.	.	.	.	.	8dd\J	.	8d\J)	.	.	.
=112	=112	=112	=112	=112	=112	=112	=112	=112	=112	=112	=112	=112	=112	=112	=112	=112
!	!	!	!	!	!	!	!	!	!	!	!	!	!LO:TX:t=P:problem:niejednoznaczny zapis łuku	!	!	!
4F\	.	1r	.	4a/	.	4cc\	.	1r	.	1r	8dd\L	.	(8d\L	.	1r	1r
.	.	.	.	.	.	.	.	.	.	.	8cc\	.	8c\	.	.	.
4F\	.	.	.	4a/	.	4cc\	.	.	.	.	8bX\	.	8Bn\	.	.	.
.	.	.	.	.	.	.	.	.	.	.	8cc\J	.	8c\J)	.	.	.
4F\	.	.	.	4a/	.	4cc\	.	.	.	.	2cc\	.	[2c\	.	.	.
4F\	.	.	.	4a/	.	4cc\	.	.	.	.	.	.	.	.	.	.
=113	=113	=113	=113	=113	=113	=113	=113	=113	=113	=113	=113	=113	=113	=113	=113	=113
4C/	.	1r	.	4g/	.	4ee\	.	1r	.	1r	8cc\L	.	8c\L]	.	1r	1r
.	.	.	.	.	.	.	.	.	.	.	8dd\	.	(8d\	.	.	.
4C/	.	.	.	4g/	.	4ee\	.	.	.	.	8ee\	.	8e\	.	.	.
.	.	.	.	.	.	.	.	.	.	.	8ff\J	.	8f\J)	.	.	.
4C/	.	.	.	4g/	.	4ee\	.	.	.	.	8gg\L	.	(8g\L	.	.	.
.	.	.	.	.	.	.	.	.	.	.	8ee\	.	8e\)	.	.	.
4C/	.	.	.	4g/	.	4ee\	.	.	.	.	8cc\	.	(8c\	.	.	.
.	.	.	.	.	.	.	.	.	.	.	8b-\J	.	8B-\J)	.	.	.
!	!	!	!	!	!	!	!	!	!	!	!	!	!LO:LB:g=original	!	!	!
=114	=114	=114	=114	=114	=114	=114	=114	=114	=114	=114	=114	=114	=114	=114	=114	=114
(4F\	.	1r	.	4A/	.	4ff\	.	1r	.	1r	8a\L	.	(8A\L	.	1r	1r
.	.	.	.	.	.	.	.	.	.	.	8cc\	.	8c\)	.	.	.
4C\)	.	.	.	4A/	.	4f/	.	.	.	.	8bX\	.	(8Bn\	.	.	.
.	.	.	.	.	.	.	.	.	.	.	8cc\J	.	8c\J)	.	.	.
!	!	!	!	!	!	!	!	!	!	!	!LO:LB:g=original	!	!	!	!	!
(4F\	.	.	.	4A/	.	4f/	.	.	.	.	8dd\L	.	(8d\L	.	.	.
.	.	.	.	.	.	.	.	.	.	.	8cc\	.	8c\)	.	.	.
4C\)	.	.	.	4A/	.	4f/	.	.	.	.	8b\	.	(8B\	.	.	.
.	.	.	.	.	.	.	.	.	.	.	8cc\J	.	8c\J)	.	.	.
=115	=115	=115	=115	=115	=115	=115	=115	=115	=115	=115	=115	=115	=115	=115	=115	=115
(4E\	.	1r	.	4G/	.	4e/	.	1r	.	1r	8c/L	.	(8C\L	.	1r	1r
.	.	.	.	.	.	.	.	.	.	.	8e/	.	8E\)	.	.	.
4C\)	.	.	.	4G/	.	4e/	.	.	.	.	8g/	.	(8F\	.	.	.
.	.	.	.	.	.	.	.	.	.	.	8a/J	.	8G\J)	.	.	.
(4E\	.	.	.	4G/	.	4e/	.	.	.	.	8b-\L	.	(8B-X\L	.	.	.
.	.	.	.	.	.	.	.	.	.	.	8g\	.	8G\)	.	.	.
4C\)	.	.	.	4G/	.	4e/	.	.	.	.	8cc\	.	(8c\	.	.	.
.	.	.	.	.	.	.	.	.	.	.	8b-\J	.	8B-\J)	.	.	.
=116	=116	=116	=116	=116	=116	=116	=116	=116	=116	=116	=116	=116	=116	=116	=116	=116
(4F\	.	1r	.	4A/	.	4f/	.	1r	.	1r	8a\L	.	(8A\L	.	1r	1r
.	.	.	.	.	.	.	.	.	.	.	8cc\	.	8c\)	.	.	.
4C\)	.	.	.	4A/	.	4f/	.	.	.	.	8bX\	.	(8Bn\	.	.	.
.	.	.	.	.	.	.	.	.	.	.	8cc\J	.	8c\J)	.	.	.
(4F\	.	.	.	4A/	.	4f/	.	.	.	.	8dd\L	.	8d\L	.	.	.
.	.	.	.	.	.	.	.	.	.	.	8cc\	.	(8c\	.	.	.
4C\)	.	.	.	4A/	.	4f/	.	.	.	.	8b\	.	(8B\)	.	.	.
.	.	.	.	.	.	.	.	.	.	.	8cc\J	.	8c\J)	.	.	.
=117	=117	=117	=117	=117	=117	=117	=117	=117	=117	=117	=117	=117	=117	=117	=117	=117
(4E\	.	1r	.	4G/	.	4e/	.	1r	.	1r	8c/L	.	(8C\L	.	1r	1r
.	.	.	.	.	.	.	.	.	.	.	8e/	.	8E\)	.	.	.
4C\)	.	.	.	4G/	.	4e/	.	.	.	.	8g/	.	(8G\	.	.	.
.	.	.	.	.	.	.	.	.	.	.	8a/J	.	8A\J)	.	.	.
(4E\	.	.	.	4G/	.	4e/	.	.	.	.	8b-\L	.	(8B-X\L	.	.	.
.	.	.	.	.	.	.	.	.	.	.	8g\	.	8G\)	.	.	.
4C\)	.	.	.	4G/	.	4e/	.	.	.	.	8cc\	.	(8c\	.	.	.
!	!	!	!	!LO:LB:g=original	!	!LO:LB:g=original	!	!	!	!	!	!	!	!	!	!
.	.	.	.	.	.	.	.	.	.	.	8b-\J	.	8B-\J)	.	.	.
!	!	!	!	!	!	!	!	!	!	!	!	!	!LO:LB:g=original	!	!	!
=118	=118	=118	=118	=118	=118	=118	=118	=118	=118	=118	=118	=118	=118	=118	=118	=118
4F\	.	1r	.	4A/	.	4f/	.	1r	.	1r	8a\L	.	8A\L	.	1r	1r
.	.	.	.	.	.	.	.	.	.	.	8f\	.	(8F\	.	.	.
4F\	.	.	.	4A/	.	4f/	.	.	.	.	8g\	.	8G\	.	.	.
.	.	.	.	.	.	.	.	.	.	.	8a\J	.	8A\J	.	.	.
4F\	.	.	.	4A/	.	4f/	.	.	.	.	8b-\L	.	8B-\L	.	.	.
.	.	.	.	.	.	.	.	.	.	.	8cc\	.	8c\	.	.	.
4F\	.	.	.	4A/	.	4f/	.	.	.	.	8dd\	.	8d\	.	.	.
.	.	.	.	.	.	.	.	.	.	.	8ee\J	.	8e\J)	.	.	.
=119	=119	=119	=119	=119	=119	=119	=119	=119	=119	=119	=119	=119	=119	=119	=119	=119
4F\	.	1r	.	4A/	.	4a\	.	1r	.	1r	4ff\	.	(4f\	.	1r	1r
4F\	.	.	.	4A/	.	4a\	.	.	.	.	4ee\	.	4e-X\)	.	.	.
4F\	.	.	.	4A/	.	4a\	.	.	.	.	4dd\	.	(4d\	.	.	.
4F\	.	.	.	[4c#X/	.	4a\	.	.	.	.	4cc#X\	.	4c#X\)	.	.	.
!LO:LB:g=original	!	!	!	!	!	!	!	!	!	!	!LO:LB:g=original	!	!	!	!	!
=120	=120	=120	=120	=120	=120	=120	=120	=120	=120	=120	=120	=120	=120	=120	=120	=120
!	!	!	!	!	!	!	!	!	!	!LO:TX:a:t=SIC&colon;s=4gg#	!	!	!LO:TX:a:t=SIC&colon;s=4c#	!	!	!
4BB-/	.	1r	.	4c#/]	.	(4a\	.	1r	.	1r	4cc\	.	(4c\	.	1r	1r
4BB-/	.	.	.	4d/	.	4b-\)	.	.	.	.	4dd\	.	4d\)	.	.	.
4BB-/	.	.	.	4d'/	.	4b-\	.	.	.	.	2dd\	.	2d\	.	.	.
4BB-/	.	.	.	4d'/	.	4b-\	.	.	.	.	.	.	.	.	.	.
=121	=121	=121	=121	=121	=121	=121	=121	=121	=121	=121	=121	=121	=121	=121	=121	=121
4BB-/	.	1r	.	4d/	.	4b-\	.	1r	.	1r	8dd\L	.	(8d\L	.	1r	1r
.	.	.	.	.	.	.	.	.	.	.	8ee\	.	8e\)	.	.	.
4BB-/	.	.	.	4d/	.	4b-\	.	.	.	.	8ff\	.	(8f\	.	.	.
.	.	.	.	.	.	.	.	.	.	.	8ee\J	.	8e\J)	.	.	.
4BB-/	.	.	.	4d/	.	4b-\	.	.	.	.	8ff\L	.	(8f\L	.	.	.
.	.	.	.	.	.	.	.	.	.	.	8dd\	.	8d\)	.	.	.
4BB-/	.	.	.	4d/	.	4b-\	.	.	.	.	8cc\	.	(8c\	.	.	.
.	.	.	.	.	.	.	.	.	.	.	8b-\J	.	8B-\J)	.	.	.
=122	=122	=122	=122	=122	=122	=122	=122	=122	=122	=122	=122	=122	=122	=122	=122	=122
4F\	.	1r	.	4cn/	.	4a\	.	1r	.	1r	8a\L	.	(8A\L	.	1r	1r
.	.	.	.	.	.	.	.	.	.	.	8bX\	.	8Bn\)	.	.	.
4F\	.	.	.	4A/	.	4f/	.	.	.	.	8cc\	.	(8c\	.	.	.
.	.	.	.	.	.	.	.	.	.	.	8b\J	.	8B\J)	.	.	.
4F\	.	.	.	4A/	.	4f/	.	.	.	.	8cc\L	.	(8c\L	.	.	.
.	.	.	.	.	.	.	.	.	.	.	8b\	.	8B\)	.	.	.
4F\	.	.	.	4A/	.	4f/	.	.	.	.	8cc\	.	(8c\	.	.	.
.	.	.	.	.	.	.	.	.	.	.	8b\J	.	8B\J)	.	.	.
!	!	!	!	!	!	!	!	!	!	!	!	!	!LO:LB:g=original	!	!	!
=123	=123	=123	=123	=123	=123	=123	=123	=123	=123	=123	=123	=123	=123	=123	=123	=123
4F\	.	1r	.	4A/	.	4f/	.	1r	.	1r	(4cc\	.	(4c\	.	1r	1r
4F\	.	.	.	4A/	.	4f/	.	.	.	.	4a\)	.	4A\)	.	.	.
4F\	.	.	.	4A/	.	4f/	.	.	.	.	(4g\	.	(4G\	.	.	.
4F\	.	.	.	4A/	.	4f/	.	.	.	.	4f\)	.	4F\)	.	.	.
!	!	!	!	!	!	!LO:LB:g=original	!	!	!	!	!	!	!	!	!	!
=124	=124	=124	=124	=124	=124	=124	=124	=124	=124	=124	=124	=124	=124	=124	=124	=124
!	!	!	!	!	!	!	!	!	!	!	!	!	!LO:TX:a:B:t=t	!	!	!
4C/	.	1r	.	4G/	.	4e/	.	1r	.	1r	[1g	.	[1G	.	1r	1r
4C/	.	.	.	4G/	.	4e/	.	.	.	.	.	.	.	.	.	.
4C/	.	.	.	4G/	.	4e/	.	.	.	.	.	.	.	.	.	.
4C/	.	.	.	4G/	.	4e/	.	.	.	.	.	.	.	.	.	.
=125	=125	=125	=125	=125	=125	=125	=125	=125	=125	=125	=125	=125	=125	=125	=125	=125
4CC/	.	1r	.	4G/	.	4e/	.	1r	.	1r	1g]	.	1G]	.	1r	1r
4CC/	.	.	.	4G/	.	4e/	.	.	.	.	.	.	.	.	.	.
4CC/	.	.	.	4G/	.	4e/	.	.	.	.	.	.	.	.	.	.
4CC/	.	.	.	4G/	.	4e/	.	.	.	.	.	.	.	.	.	.
!	!	!	!	!LO:LB:g=original	!	!	!	!	!	!	!	!	!	!	!	!
=126	=126	=126	=126	=126	=126	=126	=126	=126	=126	=126	=126	=126	=126	=126	=126	=126
!	!	!	!	!	!LO:DY:b:t=for	!	!LO:DY:b:t=for:	!	!	!	!	!	!	!	!	!
4FF/	.	1r	.	8A/L	f	8f/L	f	1r	.	1r	4f\	.	4F\	.	1r	1r
.	.	.	.	8c/	.	8cc\	.	.	.	.	.	.	.	.	.	.
4r	.	.	.	8c/	.	8cc\	.	.	.	.	4r	.	4r	.	.	.
.	.	.	.	8c/J	.	8cc\J	.	.	.	.	.	.	.	.	.	.
2r	.	.	.	8c/L	.	8cc\L	.	.	.	.	4r	.	2r	.	.	.
!LO:LB:g=original	!	!	!	!	!	!	!	!	!	!	!	!	!	!	!	!
.	.	.	.	8c/	.	8cc\	.	.	.	.	.	.	.	.	.	.
!	!	!	!	!	!	!	!	!	!	!LO:TX:a:t=Re	!	!	!	!	!	!
.	.	.	.	8c/	.	8cc\	.	.	.	.	4r	.	.	.	.	.
!	!	!	!	!	!	!	!	!	!	!	!LO:LB:g=original	!	!	!	!	!
.	.	.	.	8c/J	.	8cc\J	.	.	.	.	.	.	.	.	.	.
*	*	*	*	*	*	*	*	*	*	*v	*v	*	*	*	*	*
=127	=127	=127	=127	=127	=127	=127	=127	=127	=127	=127	=127	=127	=127	=127	=127
!	!LO:DY:b:t=for.	!	!	!	!	!	!	!	!	!LO:TX:a:t=tro	!	!	!	!	!
4B-\	f	4g\	.	8c/L	.	8cc\L	.	4g\	.	4b-\	.	4B-\	.	4gg\	4bb-\
.	.	.	.	8c/	.	8cc\	.	.	.	.	.	.	.	.	.
4r	.	4r	.	8c/	.	8cc\	.	4r	.	4r	.	4r	.	4r	4r
.	.	.	.	8c/J	.	8cc\J	.	.	.	.	.	.	.	.	.
4G\	.	4e\	.	8c/L	.	8cc\L	.	4c/	.	4g\	.	4G\	.	4ee\	4gg\
.	.	.	.	8c/	.	8cc\	.	.	.	.	.	.	.	.	.
4r	.	4r	.	8c/	.	8cc\	.	4r	.	4r	.	4r	.	4r	4r
.	.	.	.	8c/J	.	8cc\J	.	.	.	.	.	.	.	.	.
=128	=128	=128	=128	=128	=128	=128	=128	=128	=128	=128	=128	=128	=128	=128	=128
4A\	.	4f\	.	8c/L	.	8cc\L	.	4f\	.	4a\	.	4A\	.	4ff\	4aa\
.	.	.	.	8c/	.	8cc\	.	.	.	.	.	.	.	.	.
4r	.	4r	.	8c/	.	8cc\	.	4r	.	4r	.	4r	.	4r	4r
.	.	.	.	8c/J	.	8cc\J	.	.	.	.	.	.	.	.	.
4r	.	4r	.	8c/L	.	8cc\L	.	4r	.	4r	.	4r	.	4r	4r
.	.	.	.	8c/	.	8cc\	.	.	.	.	.	.	.	.	.
4F\	.	4A/	.	8c/	.	8cc\	.	4A/	.	4f\	.	4F\	.	4a/	4ff\
.	.	.	.	8c/J	.	8cc\J	.	.	.	.	.	.	.	.	.
=129	=129	=129	=129	=129	=129	=129	=129	=129	=129	=129	=129	=129	=129	=129	=129
4G\	.	4B-/	.	8c/L	.	8cc\L	.	4c/	.	4g\	.	4G\	.	4b-/	4gg\
.	.	.	.	8c/	.	8cc\	.	.	.	.	.	.	.	.	.
4r	.	4r	.	8c/	.	8cc\	.	4r	.	4r	.	4r	.	4r	4r
.	.	.	.	8c/J	.	8cc\J	.	.	.	.	.	.	.	.	.
4E\	.	4r	.	8c/L	.	8cc\L	.	4c/	.	4g\	.	4E\	.	4g/	4ee\
.	.	.	.	8c/	.	8cc\	.	.	.	.	.	.	.	.	.
4r	.	4G/	.	8c/	.	8cc\	.	4r	.	4r	.	4r	.	4r	4r
!	!	!LO:LB:g=original	!	!	!	!	!	!	!	!	!	!	!	!	!
.	.	.	.	8c/J	.	8cc\J	.	.	.	.	.	.	.	.	.
=130	=130	=130	=130	=130	=130	=130	=130	=130	=130	=130	=130	=130	=130	=130	=130
4F\	.	4A/	.	8c/L	.	8cc\L	.	4A/	.	4f\	.	4F\	.	4a/	4ff\
.	.	.	.	8c/	.	8cc\	.	.	.	.	.	.	.	.	.
4r	.	4r	.	8c/	.	8cc\	.	4r	.	4r	.	4r	.	4r	4r
.	.	.	.	8c/J	.	8cc\J	.	.	.	.	.	.	.	.	.
4r	.	4r	.	8c/L	.	8cc\L	.	4r	.	4r	.	4r	.	4r	4r
.	.	.	.	8c/	.	8cc\	.	.	.	.	.	.	.	.	.
4c\	.	4a\	.	8c/	.	8cc\	.	4a\	.	4cc\	.	4c\	.	4aa\	4ccc\
!	!	!	!	!	!	!	!	!LO:LB:g=original	!	!	!	!LO:LB:g=original	!	!	!
.	.	.	.	8c/J	.	8cc\J	.	.	.	.	.	.	.	.	.
!	!	!	!	!	!	!LO:LB:g=original	!	!	!	!	!	!	!	!	!
=131	=131	=131	=131	=131	=131	=131	=131	=131	=131	=131	=131	=131	=131	=131	=131
4B-\	.	4g\	.	8c/L	.	8cc\L	.	4g\	.	4b-\	.	4B-\	.	4gg\	4bb-\
.	.	.	.	8c/	.	8cc\	.	.	.	.	.	.	.	.	.
4r	.	4r	.	8c/	.	8cc\	.	4r	.	4r	.	4r	.	4r	4r
.	.	.	.	8c/J	.	8cc\J	.	.	.	.	.	.	.	.	.
4G\	.	4e\	.	8c/L	.	8cc\L	.	4c/	.	4g\	.	4G\	.	4ee\	4gg\
.	.	.	.	8c/	.	8cc\	.	.	.	.	.	.	.	.	.
4r	.	4r	.	8c/	.	8cc\	.	4r	.	4r	.	4r	.	4r	4r
!	!	!	!	!	!	!	!	!	!	!	!	!	!	!	!LO:LB:g=original
.	.	.	.	8c/J	.	8cc\J	.	.	.	.	.	.	.	.	.
=132	=132	=132	=132	=132	=132	=132	=132	=132	=132	=132	=132	=132	=132	=132	=132
4A\	.	4f\	.	8c/L	.	8cc\L	.	4f\	.	4a\	.	4A\	.	4ff\	4aa\
.	.	.	.	8c/	.	8cc\	.	.	.	.	.	.	.	.	.
4r	.	4r	.	8c/	.	8cc\	.	4r	.	4r	.	4r	.	4r	4r
.	.	.	.	8c/J	.	8cc\J	.	.	.	.	.	.	.	.	.
4r	.	4r	.	8c/L	.	8cc\L	.	4r	.	4r	.	4r	.	4r	4r
.	.	.	.	8c/	.	8cc\	.	.	.	.	.	.	.	.	.
4F\	.	4A/	.	8c/	.	8cc\	.	4A/	.	4f\	.	4F\	.	4a/	4ff\
.	.	.	.	8c/J	.	8cc\J	.	.	.	.	.	.	.	.	.
=133	=133	=133	=133	=133	=133	=133	=133	=133	=133	=133	=133	=133	=133	=133	=133
4G\	.	4B-/	.	8c/L	.	8cc\L	.	4c/	.	4g\	.	4G\	.	4b-/	4gg\
.	.	.	.	8c/	.	8cc\	.	.	.	.	.	.	.	.	.
4r	.	4r	.	8c/	.	8cc\	.	4r	.	4r	.	4r	.	4r	4r
.	.	.	.	8c/J	.	8cc\J	.	.	.	.	.	.	.	.	.
4E\	.	4G/	.	8c/L	.	8cc\L	.	4c/	.	4g\	.	4E\	.	4g/	4ee\
.	.	.	.	8c/	.	8cc\	.	.	.	.	.	.	.	.	.
4r	.	4r	.	8c/	.	8cc\	.	4r	.	4r	.	4r	.	4r	4r
!LO:LB:g=original	!	!	!	!	!	!	!	!	!	!LO:LB:g=original	!	!	!	!LO:LB:g=original	!
.	.	.	.	8c/J	.	8cc\J	.	.	.	.	.	.	.	.	.
!	!	!	!	!LO:LB:g=original	!	!	!	!	!	!	!	!	!	!	!
=134	=134	=134	=134	=134	=134	=134	=134	=134	=134	=134	=134	=134	=134	=134	=134
!	!	!LO:TX:a:t=|	!	!	!	!	!	!	!	!	!	!	!	!	!
8F'\L	.	8F/L	.	16a/LL	.	16ff\LL	.	[1f	.	1a	.	8F'\L	.	1a	[1ff
.	.	.	.	16a/	.	16ff\	.	.	.	.	.	.	.	.	.
!	!	!LO:TX:a:t=|	!	!	!	!	!	!	!	!	!	!	!	!	!
8E'\	.	8e\	.	16a/	.	16ff\	.	.	.	.	.	8E'\	.	.	.
.	.	.	.	16a/	.	16ff\	.	.	.	.	.	.	.	.	.
!	!	!LO:TX:a:t=|	!	!	!	!	!	!	!	!	!	!	!	!	!
8F'\	.	8f\	.	16a/	.	16ff\	.	.	.	.	.	8F'\	.	.	.
.	.	.	.	16a/	.	16ff\	.	.	.	.	.	.	.	.	.
!	!	!LO:TX:a:t=|	!	!	!	!	!	!	!	!	!	!	!	!	!
8E'\J	.	8e\J	.	16a/	.	16ff\	.	.	.	.	.	8E'\J	.	.	.
.	.	.	.	16a/JJ	.	16ff\JJ	.	.	.	.	.	.	.	.	.
!	!	!LO:TX:a:t=|	!	!	!	!	!	!	!	!	!	!	!	!	!
8D'/L	.	8d\L	.	16a/LL	.	16ff\LL	.	.	.	.	.	8D'/L	.	.	.
.	.	.	.	16a/	.	16ff\	.	.	.	.	.	.	.	.	.
!	!	!LO:TX:a:t=|	!	!	!	!	!	!	!	!	!	!	!	!	!
8C'/	.	8c\	.	16a/	.	16ff\	.	.	.	.	.	8C'/	.	.	.
.	.	.	.	16a/	.	16ff\	.	.	.	.	.	.	.	.	.
!	!	!LO:TX:a:t=|	!	!	!	!	!	!	!	!	!	!	!	!	!
8D'/	.	8d\	.	16a/	.	16ff\	.	.	.	.	.	8D'/	.	.	.
.	.	.	.	16a/	.	16ff\	.	.	.	.	.	.	.	.	.
!	!	!LO:TX:a:t=|	!	!	!	!	!	!	!	!	!	!	!	!	!
8C'/J	.	8c\J	.	16a/	.	16ff\	.	.	.	.	.	8C'/J	.	.	.
.	.	.	.	16a/JJ	.	16ff\JJ	.	.	.	.	.	.	.	.	.
=135	=135	=135	=135	=135	=135	=135	=135	=135	=135	=135	=135	=135	=135	=135	=135
8BB-'/L	.	8B-'/L	.	16g/LL	.	16ff\LL	.	2f\]	.	1g	.	8BB-'/L	.	1g	2ff\]
.	.	.	.	16g/	.	16ff\	.	.	.	.	.	.	.	.	.
8AA'/J	.	8A'/J	.	16g/	.	16ff\	.	.	.	.	.	8AA'/J	.	.	.
.	.	.	.	16g/	.	16ff\	.	.	.	.	.	.	.	.	.
8GG'/L	.	8G'/L	.	16g/	.	16ff\	.	.	.	.	.	8GG'/L	.	.	.
.	.	.	.	16g/	.	16ff\	.	.	.	.	.	.	.	.	.
16AA'/L	.	16A'/L	.	16g/	.	16ff\	.	.	.	.	.	16AA'/L	.	.	.
16BB-'/JJ	.	16B-'/JJ	.	16g/JJ	.	16ff\JJ	.	.	.	.	.	16BB-'/JJ	.	.	.
8C/L	.	8c/L	.	16g/LL	.	16ee\LL	.	2c/	.	.	.	8C/L	.	.	2ee\
.	.	.	.	16g/	.	16ee\	.	.	.	.	.	.	.	.	.
8BBn/	.	8Bn/	.	16g/	.	16ee\	.	.	.	.	.	8BBn/	.	.	.
.	.	.	.	16g/	.	16ee\	.	.	.	.	.	.	.	.	.
8C/	.	8c/	.	16g/	.	16ee\	.	.	.	.	.	8C/	.	.	.
.	.	.	.	16g/	.	16ee\	.	.	.	.	.	.	.	.	.
8CC/J	.	8C/J	.	16g/	.	16ee\	.	.	.	.	.	8CC/J	.	.	.
!	!	!	!	!	!	!	!	!	!	!	!	!LO:LB:g=original	!	!	!
.	.	.	.	16g/JJ	.	16ee\JJ	.	.	.	.	.	.	.	.	.
=136	=136	=136	=136	=136	=136	=136	=136	=136	=136	=136	=136	=136	=136	=136	=136
!LO:TX:a:t=|	!	!	!	!	!	!	!	!	!	!	!	!	!	!	!
8FF/L	.	8F/L	.	16a/LL	.	16ff\LL	.	[1f	.	1a	.	8FF/L	.	1a	[1ff
.	.	.	.	16a/	.	16ff\	.	.	.	.	.	.	.	.	.
(16F\L	.	(16f\L	.	16a/	.	16ff\	.	.	.	.	.	(16F\L	.	.	.
16E\JJ)	.	16e\JJ)	.	16a/	.	16ff\	.	.	.	.	.	16E\JJ)	.	.	.
8F'\L	.	8f'\L	.	16a/	.	16ff\	.	.	.	.	.	8F'\L	.	.	.
.	.	.	.	16a/	.	16ff\	.	.	.	.	.	.	.	.	.
8E'\J	.	8e'\J	.	16a/	.	16ff\	.	.	.	.	.	8E'\J	.	.	.
!	!	!LO:LB:g=original	!	!	!	!	!	!	!	!	!	!	!	!	!
.	.	.	.	16a/JJ	.	16ff\JJ	.	.	.	.	.	.	.	.	.
!	!	!LO:TX:a:t=|	!	!	!	!	!	!	!	!	!	!	!	!	!
8D'/L	.	8d\L	.	16a/LL	.	16ff\LL	.	.	.	.	.	8D'/L	.	.	.
.	.	.	.	16a/	.	16ff\	.	.	.	.	.	.	.	.	.
!	!	!LO:TX:a:t=|	!	!	!	!	!	!	!	!	!	!	!	!	!
8C'/	.	8c\	.	16a/	.	16ff\	.	.	.	.	.	8C'/	.	.	.
.	.	.	.	16a/	.	16ff\	.	.	.	.	.	.	.	.	.
!	!	!LO:TX:a:t=|	!	!	!	!	!	!	!	!	!	!	!	!	!
8D'/	.	8d\	.	16a/	.	16ff\	.	.	.	.	.	8D'/	.	.	.
.	.	.	.	16a/	.	16ff\	.	.	.	.	.	.	.	.	.
!	!	!LO:TX:a:t=|	!	!	!	!	!	!	!	!	!	!	!	!	!
8C'/J	.	8c\J	.	16a/	.	16ff\	.	.	.	.	.	8C'/J	.	.	.
.	.	.	.	16a/JJ	.	16ff\JJ	.	.	.	.	.	.	.	.	.
=137	=137	=137	=137	=137	=137	=137	=137	=137	=137	=137	=137	=137	=137	=137	=137
8BB-'/L	.	8B-/L	.	16g/LL	.	16ff\LL	.	2f\]	.	1g	.	8BB-'/L	.	1g	2ff\]
.	.	.	.	16g/	.	16ff\	.	.	.	.	.	.	.	.	.
8AA'/J	.	8A/J	.	16g/	.	16ff\	.	.	.	.	.	8AA'/J	.	.	.
.	.	.	.	16g/	.	16ff\	.	.	.	.	.	.	.	.	.
8GG'/L	.	8G/L	.	16g/	.	16ff\	.	.	.	.	.	8GG'/L	.	.	.
.	.	.	.	16g/	.	16ff\	.	.	.	.	.	.	.	.	.
(16AA/L	.	16A/L	.	16g/	.	16ff\	.	.	.	.	.	16AA'/L	.	.	.
16BB-/JJ)	.	16B-/JJ	.	16g/JJ	.	16ff\JJ	.	.	.	.	.	16BB-'/JJ	.	.	.
!LO:LB:g=original	!	!	!	!	!	!	!	!	!	!	!	!	!	!	!
8C/L	.	8c/L	.	16g/LL	.	16ee\LL	.	2c/	.	.	.	8C'/L	.	.	2ee\
.	.	.	.	16g/	.	16ee\	.	.	.	.	.	.	.	.	.
8BBn/	.	8Bn/	.	16g/	.	16ee\	.	.	.	.	.	8BBn'/	.	.	.
.	.	.	.	16g/	.	16ee\	.	.	.	.	.	.	.	.	.
8C/	.	8c/	.	16g/	.	16ee\	.	.	.	.	.	8C'/	.	.	.
.	.	.	.	16g/	.	16ee\	.	.	.	.	.	.	.	.	.
8CC/J	.	8C/J	.	16g/	.	16ee\	.	.	.	.	.	8CC'/J	.	.	.
.	.	.	.	16g/JJ	.	16ee\JJ	.	.	.	.	.	.	.	.	.
!	!	!	!	!	!	!LO:LB:g=original	!	!	!	!	!	!	!	!	!
=138	=138	=138	=138	=138	=138	=138	=138	=138	=138	=138	=138	=138	=138	=138	=138
4FF/	.	4F/	.	4a/	.	4ff\	.	4A/	.	4f\	.	4FF/	.	4a/	4ff\
4r	.	4r	.	4r	.	4r	.	4r	.	4r	.	4r	.	4r	4r
2r	.	2r	.	4r	.	4r	.	2r	.	2r	.	2r	.	2r	2r
!	!	!	!	!	!	!	!	!LO:LB:g=original	!	!	!	!	!	!	!
.	.	.	.	4c/	.	4cc\	.	.	.	.	.	.	.	.	.
=139	=139	=139	=139	=139	=139	=139	=139	=139	=139	=139	=139	=139	=139	=139	=139
!	!	!	!	!	!LO:DY:b:t=pia	!	!LO:DY:b:t=pianiſsimo	!	!	!	!	!	!	!	!
1r	.	1r	.	(4d/	p	(4dd\	pp	1r	.	1r	.	1r	.	1r	1r
.	.	.	.	4c/)	.	4cc\)	.	.	.	.	.	.	.	.	.
.	.	.	.	(4d/	.	(4dd\	.	.	.	.	.	.	.	.	.
.	.	.	.	4e/)	.	4ee\)	.	.	.	.	.	.	.	.	.
=140	=140	=140	=140	=140	=140	=140	=140	=140	=140	=140	=140	=140	=140	=140	=140
!	!LO:DY:b:t=pianiſsimo	!	!LO:DY:b:t=pianiſsimo	!	!	!	!	!	!	!	!	!	!LO:DY:b:t=pia:	!	!
1F	pp	1A	pp	2.f/	.	2.ff\	.	1r	.	1r	.	1F	p	1r	1r
.	.	.	.	(8g/L	.	(8gg\L	.	.	.	.	.	.	.	.	.
.	.	.	.	8a/J)	.	8aa\J)	.	.	.	.	.	.	.	.	.
!	!	!	!	!LO:LB:g=original	!	!	!	!	!	!	!	!	!	!	!
=141	=141	=141	=141	=141	=141	=141	=141	=141	=141	=141	=141	=141	=141	=141	=141
1C	.	1C 1G	.	(4b-/	.	(4bb-\	.	1r	.	1r	.	1C	.	1r	1r
.	.	.	.	4g/)	.	4gg\)	.	.	.	.	.	.	.	.	.
.	.	.	.	(4f/	.	(4ff\	.	.	.	.	.	.	.	.	.
.	.	.	.	4e/)	.	4ee\)	.	.	.	.	.	.	.	.	.
=142:|!	=142:|!	=142:|!	=142:|!	=142:|!	=142:|!	=142:|!	=142:|!	=142:|!	=142:|!	=142:|!	=142:|!	=142:|!	=142:|!	=142:|!	=142:|!
4F\	.	4F/	.	4a/	.	4ff\	.	4f\	.	4a\	.	4F\	.	4ff\	4aa\
4r	.	4r	.	4r	.	4r	.	4a\	.	4cc\	.	4r	.	4aa\	4ccc\
2r	.	2r	.	2r	.	2r	.	4a\	.	4cc\	.	2r	.	4aa\	4ccc\
!	!	!	!	!	!	!	!	!	!	!	!	!LO:LB:g=original	!	!	!
.	.	.	.	.	.	.	.	4a\	.	4cc\	.	.	.	4aa\	4ccc\
=143	=143	=143	=143	=143	=143	=143	=143	=143	=143	=143	=143	=143	=143	=143	=143
1r	.	1r	.	1r	.	1r	.	8b-\L	.	(8dd\L	.	1r	.	(8bb-\L	(8ddd\L
.	.	.	.	.	.	.	.	8a\	.	8cc\	.	.	.	8aa\)	8ccc\)
.	.	.	.	.	.	.	.	8g\	.	8b-\	.	.	.	(8gg\	(8bb-\
.	.	.	.	.	.	.	.	8f\J	.	8a\J)	.	.	.	8ff\J)	8aa\J)
.	.	.	.	.	.	.	.	4c'/	.	4g'\	.	.	.	4ee\	4gg\
.	.	.	.	.	.	.	.	4f'\	.	4a'\	.	.	.	4ff\	4aa\
=144	=144	=144	=144	=144	=144	=144	=144	=144	=144	=144	=144	=144	=144	=144	=144
1r	.	1r	.	1r	.	1r	.	4f\	.	4b-\	.	4B-\	.	4gg\	4bb-\
.	.	.	.	.	.	.	.	4r	.	4r	.	4r	.	4r	4r
.	.	.	.	.	.	.	.	4c/	.	4g\	.	4c\	.	4ee\	4gg\
.	.	.	.	.	.	.	.	4r	.	4r	.	4r	.	4r	4r
!	!	!	!	!	!	!	!	!	!	!	!	!	!	!LO:LB:g=original	!LO:LB:g=original
=145	=145	=145	=145	=145	=145	=145	=145	=145	=145	=145	=145	=145	=145	=145	=145
4F\	.	4F/	.	4r	.	4r	.	4A/	.	4f\	.	4F\	.	4a/	4ff\
!	!	!	!	!	!LO:DY:b:t=pianiſsimo	!	!LO:DY:b:t=piano	!	!	!	!	!	!	!	!
4r	.	4r	.	4aa\	pp	4ccc\	p	4r	.	4r	.	4r	.	4r	4r
2r	.	2r	.	4aa\	.	4ccc\	.	2r	.	2r	.	2r	.	2r	2r
!	!	!LO:LB:g=original	!	!	!	!	!	!	!	!	!	!	!	!	!
.	.	.	.	4aa\	.	4ccc\	.	.	.	.	.	.	.	.	.
=146	=146	=146	=146	=146	=146	=146	=146	=146	=146	=146	=146	=146	=146	=146	=146
1r	.	1r	.	(8bb-\L	.	(8ddd\L	.	1r	.	1r	.	1r	.	1r	1r
!LO:LB:g=original	!	!	!	!	!	!	!	!	!	!	!	!	!	!	!
.	.	.	.	8aa\)	.	8ccc\)	.	.	.	.	.	.	.	.	.
.	.	.	.	(8gg\	.	(8bb-\	.	.	.	.	.	.	.	.	.
.	.	.	.	8ff\J)	.	8aa\J)	.	.	.	.	.	.	.	.	.
.	.	.	.	4ee'\	.	4gg'\	.	.	.	.	.	.	.	.	.
.	.	.	.	4ff'\	.	4aa'\	.	.	.	.	.	.	.	.	.
!	!	!	!	!	!	!LO:LB:g=original	!	!	!	!	!	!	!	!	!
=147	=147	=147	=147	=147	=147	=147	=147	=147	=147	=147	=147	=147	=147	=147	=147
!	!LO:DY:b:t=pia.	!	!LO:DY:b:t=pia	!	!	!	!	!	!	!	!	!	!	!	!
4B-\	p	4B-/	p	4gg'\	.	4bb-\	.	1r	.	1r	.	1r	.	1r	1r
4r	.	4r	.	4r	.	4r	.	.	.	.	.	.	.	.	.
4c\	.	4c/	.	4ee'\	.	4gg\	.	.	.	.	.	.	.	.	.
4r	.	4r	.	4r	.	4r	.	.	.	.	.	.	.	.	.
!	!	!	!	!LO:LB:g=original	!	!	!	!	!	!	!	!	!	!	!
=148	=148	=148	=148	=148	=148	=148	=148	=148	=148	=148	=148	=148	=148	=148	=148
!	!LO:DY:b:t=for	!LO:TX:a:t=|	!LO:DY:b:t=for:	!	!LO:DY:b:t=for	!	!LO:DY:b:t=for	!	!	!	!	!	!	!	!
4F'\	f	4F/	f	16a/LL	f	16ff\LL	f	1f	.	1a	.	4F\	.	1a	1ff
.	.	.	.	16a/	.	16ff\	.	.	.	.	.	.	.	.	.
.	.	.	.	16a/	.	16ff\	.	.	.	.	.	.	.	.	.
.	.	.	.	16a/	.	16ff\	.	.	.	.	.	.	.	.	.
!	!	!LO:TX:a:t=|	!	!	!	!	!	!	!	!	!	!	!	!	!
8f'\L	.	8f\L	.	16a/	.	16ff\	.	.	.	.	.	8f\L	.	.	.
.	.	.	.	16a/	.	16ff\	.	.	.	.	.	.	.	.	.
!	!	!LO:TX:a:t=|	!	!	!	!	!	!	!	!	!	!	!	!	!
8e'\J	.	8e\J	.	16a/	.	16ff\	.	.	.	.	.	8e\J	.	.	.
.	.	.	.	16a/JJ	.	16ff\JJ	.	.	.	.	.	.	.	.	.
4f'\	.	4f\	.	16a/LL	.	16ff\LL	.	.	.	.	.	4f\	.	.	.
.	.	.	.	16a/	.	16ff\	.	.	.	.	.	.	.	.	.
.	.	.	.	16a/	.	16ff\	.	.	.	.	.	.	.	.	.
.	.	.	.	16a/	.	16ff\	.	.	.	.	.	.	.	.	.
4c'\	.	4c\	.	16a/	.	16ff\	.	.	.	.	.	4c\	.	.	.
.	.	.	.	16a/	.	16ff\	.	.	.	.	.	.	.	.	.
.	.	.	.	16a/	.	16ff\	.	.	.	.	.	.	.	.	.
.	.	.	.	16a/JJ	.	16ff\JJ	.	.	.	.	.	.	.	.	.
=149	=149	=149	=149	=149	=149	=149	=149	=149	=149	=149	=149	=149	=149	=149	=149
4d'\	.	4d\	.	16a/LL	.	16ff\LL	.	1f	.	1a	.	4d\	.	1a	[1ff
!	!	!	!	!	!	!	!	!LO:LB:g=original	!	!	!	!	!	!	!
.	.	.	.	16a/	.	16ff\	.	.	.	.	.	.	.	.	.
.	.	.	.	16a/	.	16ff\	.	.	.	.	.	.	.	.	.
.	.	.	.	16a/	.	16ff\	.	.	.	.	.	.	.	.	.
4c#X'\	.	4c#X\	.	16a/	.	16ff\	.	.	.	.	.	4c#X\	.	.	.
.	.	.	.	16a/	.	16ff\	.	.	.	.	.	.	.	.	.
.	.	.	.	16a/	.	16ff\	.	.	.	.	.	.	.	.	.
.	.	.	.	16a/JJ	.	16ff\JJ	.	.	.	.	.	.	.	.	.
4d'\	.	4d\	.	16a/LL	.	16ff\LL	.	.	.	.	.	4d\	.	.	.
.	.	.	.	16a/	.	16ff\	.	.	.	.	.	.	.	.	.
.	.	.	.	16a/	.	16ff\	.	.	.	.	.	.	.	.	.
.	.	.	.	16a/	.	16ff\	.	.	.	.	.	.	.	.	.
4A'\	.	4A/	.	16a/	.	16ff\	.	.	.	.	.	4A\	.	.	.
.	.	.	.	16a/	.	16ff\	.	.	.	.	.	.	.	.	.
.	.	.	.	16a/	.	16ff\	.	.	.	.	.	.	.	.	.
.	.	.	.	16a/JJ	.	16ff\JJ	.	.	.	.	.	.	.	.	.
=150	=150	=150	=150	=150	=150	=150	=150	=150	=150	=150	=150	=150	=150	=150	=150
4B-'\	.	4B-/	.	16a/LL	.	16ff\LL	.	2f\	.	2a\	.	4B-\	.	2a/	2ff\]
.	.	.	.	16a/	.	16ff\	.	.	.	.	.	.	.	.	.
.	.	.	.	16a/	.	16ff\	.	.	.	.	.	.	.	.	.
.	.	.	.	16a/	.	16ff\	.	.	.	.	.	.	.	.	.
4G'\	.	4G/	.	16a/	.	16ff\	.	.	.	.	.	4G\	.	.	.
.	.	.	.	16a/	.	16ff\	.	.	.	.	.	.	.	.	.
.	.	.	.	16a/	.	16ff\	.	.	.	.	.	.	.	.	.
.	.	.	.	16a/JJ	.	16ff\JJ	.	.	.	.	.	.	.	.	.
4cn'\	.	4cn/	.	16g/LL	.	16ee\LL	.	2c/	.	2g\	.	4cn\	.	2g/	2ee\
.	.	.	.	16g/	.	16ee\	.	.	.	.	.	.	.	.	.
.	.	.	.	16g/	.	16ee\	.	.	.	.	.	.	.	.	.
.	.	.	.	16g/	.	16ee\	.	.	.	.	.	.	.	.	.
4C'/	.	4C/	.	16g/	.	16ee\	.	.	.	.	.	4C/	.	.	.
!	!	!	!	!	!	!	!	!	!	!	!	!LO:LB:g=original	!	!	!
.	.	.	.	16g/	.	16ee\	.	.	.	.	.	.	.	.	.
.	.	.	.	16g/	.	16ee\	.	.	.	.	.	.	.	.	.
.	.	.	.	16g/JJ	.	16ee\JJ	.	.	.	.	.	.	.	.	.
=151	=151	=151	=151	=151	=151	=151	=151	=151	=151	=151	=151	=151	=151	=151	=151
4F'\	.	4F'/	.	16a/LL	.	16ff\LL	.	1f	.	1a	.	4F'\	.	1a	1ff
.	.	.	.	16a/	.	16ff\	.	.	.	.	.	.	.	.	.
.	.	.	.	16a/	.	16ff\	.	.	.	.	.	.	.	.	.
.	.	.	.	16a/	.	16ff\	.	.	.	.	.	.	.	.	.
8F'\L	.	8f'\L	.	16a/	.	16ff\	.	.	.	.	.	8F'\L	.	.	.
.	.	.	.	16a/	.	16ff\	.	.	.	.	.	.	.	.	.
8E'\J	.	8e'\J	.	16a/	.	16ff\	.	.	.	.	.	8E'\J	.	.	.
.	.	.	.	16a/JJ	.	16ff\JJ	.	.	.	.	.	.	.	.	.
!	!	!LO:TX:a:t=|	!	!	!	!	!	!	!	!	!	!	!	!	!
4F'\	.	4f\	.	16a/LL	.	16ff\LL	.	.	.	.	.	4F'\	.	.	.
.	.	.	.	16a/	.	16ff\	.	.	.	.	.	.	.	.	.
.	.	.	.	16a/	.	16ff\	.	.	.	.	.	.	.	.	.
.	.	.	.	16a/	.	16ff\	.	.	.	.	.	.	.	.	.
!	!	!LO:TX:a:t=|	!	!	!	!	!	!	!	!	!	!	!	!	!
4C'/	.	4c\	.	16a/	.	16ff\	.	.	.	.	.	4C'/	.	.	.
!LO:LB:g=original	!	!	!	!	!	!	!	!	!	!	!	!	!	!	!
.	.	.	.	16a/	.	16ff\	.	.	.	.	.	.	.	.	.
.	.	.	.	16a/	.	16ff\	.	.	.	.	.	.	.	.	.
.	.	.	.	16a/JJ	.	16ff\JJ	.	.	.	.	.	.	.	.	.
=152	=152	=152	=152	=152	=152	=152	=152	=152	=152	=152	=152	=152	=152	=152	=152
!	!	!LO:TX:a:t=|	!	!	!	!	!	!	!	!	!	!	!	!	!
4D/	.	4d\	.	16a/LL	.	16ff\LL	.	1f	.	1a	.	4D/	.	1a	[1ff
.	.	.	.	16a/	.	16ff\	.	.	.	.	.	.	.	.	.
.	.	.	.	16a/	.	16ff\	.	.	.	.	.	.	.	.	.
.	.	.	.	16a/	.	16ff\	.	.	.	.	.	.	.	.	.
!	!	!LO:TX:a:t=|	!	!	!	!	!	!	!	!	!	!	!	!	!
4C#X/	.	4c#X\	.	16a/	.	16ff\	.	.	.	.	.	4C#X/	.	.	.
.	.	.	.	16a/	.	16ff\	.	.	.	.	.	.	.	.	.
.	.	.	.	16a/	.	16ff\	.	.	.	.	.	.	.	.	.
.	.	.	.	16a/JJ	.	16ff\JJ	.	.	.	.	.	.	.	.	.
!	!	!LO:TX:a:t=|	!	!	!	!	!	!	!	!	!	!	!	!	!
4D/	.	4d\	.	16a/LL	.	16ff\LL	.	.	.	.	.	4D/	.	.	.
.	.	.	.	16a/	.	16ff\	.	.	.	.	.	.	.	.	.
.	.	.	.	16a/	.	16ff\	.	.	.	.	.	.	.	.	.
.	.	.	.	16a/	.	16ff\	.	.	.	.	.	.	.	.	.
!	!	!LO:TX:a:t=|	!	!	!	!	!	!	!	!	!	!	!	!	!
4AA/	.	4A/	.	16a/	.	16ff\	.	.	.	.	.	4AA/	.	.	.
!	!	!LO:LB:g=original	!	!	!	!	!	!	!	!	!	!	!	!	!
.	.	.	.	16a/	.	16ff\	.	.	.	.	.	.	.	.	.
.	.	.	.	16a/	.	16ff\	.	.	.	.	.	.	.	.	.
.	.	.	.	16a/JJ	.	16ff\JJ	.	.	.	.	.	.	.	.	.
=153	=153	=153	=153	=153	=153	=153	=153	=153	=153	=153	=153	=153	=153	=153	=153
4BB-/	.	4B-/	.	16a/LL	.	16ff\LL	.	2f\	.	2a\	.	4BB-/	.	2a/	2ff\]
.	.	.	.	16a/	.	16ff\	.	.	.	.	.	.	.	.	.
.	.	.	.	16a/	.	16ff\	.	.	.	.	.	.	.	.	.
.	.	.	.	16a/	.	16ff\	.	.	.	.	.	.	.	.	.
4GG/	.	4G/	.	16a/	.	16ff\	.	.	.	.	.	4GG/	.	.	.
.	.	.	.	16a/	.	16ff\	.	.	.	.	.	.	.	.	.
.	.	.	.	16a/	.	16ff\	.	.	.	.	.	.	.	.	.
.	.	.	.	16a/JJ	.	16ff\JJ	.	.	.	.	.	.	.	.	.
4Cn/	.	4cn/	.	16g/LL	.	16ee\LL	.	2c/	.	2g\	.	4Cn/	.	2g/	2ee\
.	.	.	.	16g/	.	16ee\	.	.	.	.	.	.	.	.	.
.	.	.	.	16g/	.	16ee\	.	.	.	.	.	.	.	.	.
.	.	.	.	16g/	.	16ee\	.	.	.	.	.	.	.	.	.
4CC/	.	4C/	.	16g/	.	16ee\	.	.	.	.	.	4CC/	.	.	.
.	.	.	.	16g/	.	16ee\	.	.	.	.	.	.	.	.	.
.	.	.	.	16g/	.	16ee\	.	.	.	.	.	.	.	.	.
.	.	.	.	16g/JJ	.	16ee\JJ	.	.	.	.	.	.	.	.	.
!	!	!	!	!	!	!LO:LB:g=original	!	!	!	!	!	!	!	!	!
*	*	*	*	*	*	*Xtremolo	*	*	*	*	*	*	*	*	*
*	*	*	*	*Xtremolo	*	*	*	*	*	*	*	*	*	*	*
=154	=154	=154	=154	=154	=154	=154	=154	=154	=154	=154	=154	=154	=154	=154	=154
4FF/	.	4F/	.	4a/	.	4ff\	.	4A/	.	4f\	.	4FF/	.	4a/	4ff\
4F\	.	4f\	.	4c/ 4f 4a	.	4f/ 4cc 4ff	.	4A/	.	4f\	.	4F\	.	4a/	4ff\
4C/	.	4c\	.	4c/ 4f 4a	.	4f/ 4cc 4ff	.	4A/	.	4f\	.	4C\	.	4a/	4ff\
4AA/	.	4A\	.	4c/ 4f 4a	.	4f/ 4cc 4ff	.	4A/	.	4f\	.	4AA/	.	4a/	4ff\
!	!	!	!	!	!	!	!	!	!	!LO:LB:g=original	!	!	!	!	!
=155	=155	=155	=155	=155	=155	=155	=155	=155	=155	=155	=155	=155	=155	=155	=155
2.FF/	.	2.F/	.	2.c/ 2.f 2.a	.	2.f/ 2.cc 2.ff	.	2.A/	.	2.f\	.	2.FF/	.	2.a/	2.ff\
!LO:TX:b:t=V. Andante Rondo.	!	!LO:TX:b:t=V&colon; Andante Rondo.	!	!LO:TX:b:t=V&colon; Andante Rondo	!	!LO:TX:b:t=Andante Volti	!	!LO:TX:b:t=V&colon; Andante Rondo	!	!LO:TX:b:t=V. And&colon; Rondo.	!	!LO:TX:b:t=fine&colon;/&colon;	!	!LO:TX:b:t=V&colon; Andante	!LO:TX:b:t=S&colon; Andant
4r	.	4r	.	4r	.	4r	.	4r	.	4r	.	4r	.	4r	4r
==	==	==	==	==	==	==	==	==	==	==	==	==	==	==	==
*-	*-	*-	*-	*-	*-	*-	*-	*-	*-	*-	*-	*-	*-	*-	*-
!!!RDF**kern: | = vertical stroke
!!!system-decoration: [(s1,s2,s3)][(s4,s5)][(s6,s7,s8,s9)]
!!!ENC: Andrzej Kubiczek
!!!END: 2020-08-19
!!!AIN: 1 cbass 1 cor 1 fagot 2 oboe 1 viola 2 violn
!!!ENC: Julita Ruszuk
!!!END: 2022-02-24
